!!!!SEGMENT: pl-wumfc--n60668_modzelewski-michal--kwiatki-nasze-wy-pieszczotki-swawolnice.krn
!!!cenid: 18xx:4125
!!!COM: Modzelewski, Michał
!!!COM-rismID: pe40213240
!!!CDT:
!!!CNT:
!!!OTL: Kwiatki nasze/Wy pieszczotki swawolnice
!!!PDT:
!!!AGN:
!!!SMS-siglum: PL-Wumfc
!!!SMS-shelfmark: N60668
!!!SMS-shelfwork: W
!!!SMS-variant:
!!!SMS-altvar:
!!!NIFC-rismSourceID: 1001178039
!!!NIFC-rismChildID: 1001178039
!!!NIFC-islandoraID: pl-wumfc:8347
!!!URL-pdf-islandora: https://repozytorium.nifc.pl/islandora/object/pl-wumfc%3A8347/datastream/PDF/view
!!!URL-scan: https://polish.musicsources.pl/pl/lokalizacje/galeria/druki-muzyczne/12621/1 @EN{Scan on Polish Music Sources Website} @PL{Skany w portalu Dziedzictwo Muzyki Polskiej w otwartym dostępie}
!!!ONB-nifc:
!!!AIN: 1 feme 2 forte
!!!key: C
**kern	**kern	**dynam	**kern	**text	**text	**text	**dynam
*part3	*part2	*part2	*part1	*part1	*part1	*part1	*part1
*staff3	*staff2	*	*staff1	*staff1	*staff1	*staff1	*
*I"Piano	*I"Fortepian.	*	*I"Głos.	*	*	*	*
*I'pf	*I'pf	*	*I'v	*	*	*	*
*ICklav	*ICklav	*	*ICvox	*	*	*	*
*Iforte	*Iforte	*	*Ifeme	*	*	*	*
*clefF4	*clefG2	*	*clefG2	*	*	*	*
*k[]	*k[]	*	*k[]	*	*	*	*
*C:	*C:	*	*C:	*	*	*	*
*M3/4	*M3/4	*	*M3/4	*	*	*	*
*>[A,B,B,B,C]	*	*	*	*	*	*	*
=1	=1	=1	=1	=1	=1	=1	=1
*>A	*	*	*	*	*	*	*
*^	*^	*	*	*	*	*	*
!	!	!	!	!	!LO:TX:B:a:t=Moderato.	!	!	!	!
4r	2.CC\	(8cc/L	4e\	p <	2.r	.	.	.	.
.	.	8ee/J	.	.	.	.	.	.	.
4G/ 4c 4e	.	4.gg/	2g\	[	.	.	.	.	.
4C/ 4G	.	.	.	.	.	.	.	.	.
.	.	8ee/)	.	.	.	.	.	.	.
*v	*v	*	*	*	*	*	*	*	*
=2	=2	=2	=2	=2	=2	=2	=2	=2
4C\ 4G 4B	(8dd/L	4f\	>	2.r	.	.	.	.
.	8qee/	.	.	.	.	.	.	.
.	8dd/J	.	.	.	.	.	.	.
4C\ 4G 4c	4cc/	4e\	]	.	.	.	.	.
4C\ 4G 4c	4g/)	4e\	.	.	.	.	.	.
=3	=3	=3	=3	=3	=3	=3	=3	=3
*^	*	*	*	*	*	*	*	*
*	*^	*	*	*	*	*	*	*	*
4r	2.CC\	4ryy	(8cc/L	4e\	<	2.r	.	.	.	.
.	.	.	8ee/J	.	.	.	.	.	.	.
4.e/	.	2G\	4.gg/	2g\	[	.	.	.	.	.
8c/	.	.	8ee/)	.	.	.	.	.	.	.
*v	*v	*v	*	*	*	*	*	*	*	*
=4	=4	=4	=4	=4	=4	=4	=4	=4
4F#X\ 4c 4d#X	(8aa/L	4a\	>	2.r	.	.	.	.
.	8ff#X/J	.	.	.	.	.	.	.
4G\ 4c 4e	2gg/)	(4.g\	]	.	.	.	.	.
4G\ 4dn 4fn	.	.	.	.	.	.	.	.
.	.	16a\LL	.	.	.	.	.	.
.	.	16b\JJ)	.	.	.	.	.	.
=5	=5	=5	=5	=5	=5	=5	=5	=5
*^	*	*	*	*	*	*	*	*
4r	2.CC\	(8cc/L	4e\	<	2.r	.	.	.	.
.	.	8ee/J	.	.	.	.	.	.	.
4G/ 4c 4e	.	4.gg/	2g\	[	.	.	.	.	.
4C/ 4G	.	.	.	.	.	.	.	.	.
.	.	8ee/)	.	.	.	.	.	.	.
*v	*v	*	*	*	*	*	*	*	*
=6	=6	=6	=6	=6	=6	=6	=6	=6
.	8qee/	.	>	.	.	.	.	.
4C\ 4G 4B	(8dd/L	4f\	.	2.r	.	.	.	.
.	8dd/J	.	.	.	.	.	.	.
4C\ 4G 4c	4cc/	4e\	]	.	.	.	.	.
4C\ 4G 4c	4g/)	4e\	.	.	.	.	.	.
!!LO:LB:g=original
=7	=7	=7	=7	=7	=7	=7	=7	=7
*^	*	*	*	*	*	*	*	*
4r	2.CC\	(8cc/L	4e\	.	2.r	.	.	.	.
.	.	8ee/J	.	.	.	.	.	.	.
4G/ 4c 4e	.	4.gg/	2g\	.	.	.	.	.	.
4C/ 4G	.	.	.	.	.	.	.	.	.
.	.	8ee/)	.	.	.	.	.	.	.
*v	*v	*	*	*	*	*	*	*	*
=8	=8	=8	=8	=8	=8	=8	=8	=8
(4C\ 4G 4B	(8dd/L	(4f\	.	2.r	.	.	.	.
.	8ee/J)	.	.	.	.	.	.	.
4C\) 4G 4c	2cc/	4e\)	.	.	.	.	.	.
*ped	*	*	*	*	*	*	*	*
4CC/	.	4e\ 4g	.	.	.	.	.	.
=9	=9	=9	=9	=9	=9	=9	=9	=9
(4c\	(8dd/L	(<(<4f\ 4a-X	.	2.r	.	.	.	.
.	8ee/J	.	.	.	.	.	.	.
4c\)	4cc/	4e\)) 4g	>	.	.	.	.	.
4CC/	4gg/)	4ryy	.	.	.	.	.	.
=10	=10	=10	=10	=10	=10	=10	=10	=10
*^	*	*	*	*	*	*	*	*
4C\ (4A-X\	4ryy	(8dd/L	(4f\ 4b	.	2.r	.	.	.	.
.	.	8ee/J)	.	.	.	.	.	.	.
8G/L)	4C\	2cc/	4e\)	.	.	.	.	.	.
8E/	.	.	.	.	.	.	.	.	.
8G/	4C\	.	4r	.	.	.	.	.	.
8c/J	.	.	.	.	.	.	.	.	.
*	*	*v	*v	*	*	*	*	*	*
=11	=11	=11	=11	=11	=11	=11	=11	=11
!	!	!LO:TX:b:t=e	!	!	!	!	!	!
(4F/	4CC\ 4C	(8d/L	.	2.r	.	.	.	.
.	.	8e/J	.	.	.	.	.	.
4E/)	4CC\ 4C	4c/	.	.	.	.	.	.
!	!	!LO:TX:b:t=rall.	!	!	!	!	!	!
4r	4CC\ 4C	4g/)	.	.	.	.	.	.
*v	*v	*	*	*	*	*	*	*
=12	=12	=12	=12	=12	=12	=12	=12
4C\ 4F 4A-X	(8d/L	.	2r	.	.	.	.
.	8e/J)	.	.	.	.	.	.
2CC;<\ 2C	2E<;/ 2G< 2c	.	.	.	.	.	.
.	.	.	4r;	.	.	.	.
=13||	=13||	=13||	=13||	=13||	=13||	=13||	=13||
(8qCC/	.	.	.	.	.	.	.
2C./)	4r	p	8.e/	Wy	.	.	.
.	.	.	16g/	piesz-	.	.	.
.	4G/ 4c 4e	.	4.cc\	-czot-	.	.	.
.	4G/ 4c 4e	.	.	.	.	.	.
.	.	.	8dd\	-ki	.	.	.
!!LO:LB:g=original
=14	=14	=14	=14	=14	=14	=14	=14
8qDD/	.	.	.	.	.	.	.
(2.D\	8.r	.	8.cc\	swa-	.	.	.
.	16G/ 16B 16f	.	16b\	-wol-	.	.	.
.	4G/ 4B 4f	.	4b\	-ni-	.	.	.
.	4G/ 4B 4f	.	8d/	-ce	.	.	.
.	.	.	8r	.	.	.	.
=15	=15	=15	=15	=15	=15	=15	=15
4GG/)	4r	.	8.d/	nad-	.	.	.
.	.	.	16cc\	-wi-	.	.	.
4r	4G/ 4d 4f	.	4.b\	-ślań-	.	.	.
4r	4G/ 4B 4f	.	.	.	.	.	.
.	.	.	8d/	-skie	.	.	.
=16	=16	=16	=16	=16	=16	=16	=16
*^	*	*	*	*	*	*	*
.	(8qCC/	.	.	.	.	.	.	.
*	*	*^	*	*	*	*	*	*
8.r	2.C\)	8.r	4ryy	.	8.a/	cza-	.	.	.
16E/	.	16c/ 16g	.	.	16g/	-ro-	.	.	.
(4A/	.	(4f/	2c\	.	4f/	-wni-	.	.	.
4G/)	.	4e/)	.	.	4e/	-ce	.	.	.
*v	*v	*	*	*	*	*	*	*	*
*	*v	*v	*	*	*	*	*	*
=17	=17	=17	=17	=17	=17	=17	=17
8.CC/L 8.C	8.c/L 8.e	.	8.e/	wo-	.	.	.
!	!	!	!	!	!	!	!LO:DY:a
16G/Jk	16d/Jk 16f	<	16g/	-ły-	.	.	<
4C\ 4G	(4.e/ 4.cc	.	4.cc\	-nian-	.	.	.
4r	.	[	.	.	.	.	.
.	8dd\)	.	8dd\	-ki	.	.	[[
=18	=18	=18	=18	=18	=18	=18	=18
*	*^	*	*	*	*	*	*
8DD/ 8D	(8.a/L	4f\	.	8.cc\	U-	.	.	.
8r	.	.	.	.	.	.	.	.
.	16g/Jk)	.	.	16b\	-kra-	.	.	.
!	!	!	!	!	!	!	!	!LO:DY:a
!	!	!	!	!	!	!	!	!LO:DY:a
4D\ 4G 4B	4.f/ 4.b 4.ff	2ryy	sf	4.ff\	-in-	.	.	sf >
4r	.	.	.	.	.	.	.	.
.	8a/	.	.	8a/	-ki	.	.	]]
!!LO:PB:g=original
=19	=19	=19	=19	=19	=19	=19	=19	=19
!	!	!	!	!	!	!	!	!LO:DY:a
4GG/ 4G	8.a/L	4B\ 4f	p	8.a/	Po-	.	.	p
.	16g/Jk	.	.	16g/	-do-	.	.	.
2GGG/ 2GG	4.d/ 4.f 4.b	2ryy	.	4.b/	-lan-	.	.	.
.	8c/ 8f 8a	.	.	8a/	-ki	.	.	.
*	*v	*v	*	*	*	*	*	*
=20	=20	=20	=20	=20	=20	=20	=20
8GG/ 8G	8.B/L 8.f 8.g	.	8.g/	i	.	.	.
8r	.	.	.	.	.	.	.
!	!LO:TX:b:t=rit.	!	!LO:TX:a:t=rall.	!	!	!	!
.	16g/Jk	.	16B/	Lit-	.	.	.
(4BB/	4f/ 4g 4dd	.	4d/	-win-	.	.	.
4C/)	4e/ 4g 4cc	.	4c/	-ki	.	.	.
=21	=21	=21	=21	=21	=21	=21	=21
*^	*	*	*	*	*	*	*
!	!	!	!	!LO:TX:B:a:t=a tempo	!	!	!	!
8BB/	4ryy	8G/ 8d 8g	.	8g/	z róż-	.	.	.
8r	.	8r	.	8f#X/	-nych	.	.	.
2G/	4r	((4.f/ 4.dd	.	4.g/	kra-	.	.	.
.	4BB\	.	.	.	.	.	.	.
.	.	8d/)) 8f	.	8d/	-in	.	.	.
=22	=22	=22	=22	=22	=22	=22	=22	=22
*	*	*^	*	*	*	*	*	*
8.G/L	4C\	((4Bt/ 4f	2ryy	.	8d/	kwiat-	.	.	.
.	.	.	.	.	8fn/	-ki	.	.	.
16G/Jk	.	.	.	.	.	.	.	.	.
8G/	4r	8c/)) 8e	.	.	4e/	Bo-	.	.	.
8r	.	8r	.	.	.	.	.	.	.
4E/	4BB-X\	(4e/	8e\L	.	8e/	-że	.	.	.
.	.	.	8d\J	.	8r	.	.	.	.
=23	=23	=23	=23	=23	=23	=23	=23	=23	=23
!	!	!	!	!	!	!	!	!	!LO:DY:a
8E/	8AA\	8a/)	8c#X\	.	8.a/	krwi	.	.	<
8r	8ryy	8r	8ryy	.	.	.	.	.	.
.	.	.	.	.	16g#X/	sar-	.	.	.
2A/	4r	((4.g\ 4.ee	2ryy	<	4.a/	-mac-	.	.	.
.	4C#X\	.	.	.	.	.	.	.	.
.	.	8e/)) 8g	.	.	8e/	-kiej	.	.	.
!!LO:LB:g=original
=24	=24	=24	=24	=24	=24	=24	=24	=24	=24
8.A/L	4.D\	(4gT/	(4c#X\	[	8e/	pię-	.	.	.
.	.	.	.	.	8gn/	-kne	.	.	.
16A/Jk	.	.	.	.	.	.	.	.	.
8A/	.	8f/)	8d\)	.	4f/	ho-	.	.	.
4.ryy	8Cn\L	8r	8ryy	.	.	.	.	.	.
.	8BB\	4f/	8d\L	.	8f/	-że	.	.	.
.	8AA\J	.	8cn\J	.	8r	.	.	.	.
*v	*v	*	*	*	*	*	*	*	*
*	*v	*v	*	*	*	*	*	*
=25	=25	=25	=25	=25	=25	=25	=25
!	!	!	!	!	!	!	!LO:DY:a
[4GG/	8.B/L 8.f 8.b	fz	8.b\	i	.	.	sfz
.	16d/Jk 16f#X 16a	.	16a#X/	ro-	.	.	.
8.GG/L]	4d/ 4f# 4b	.	4b\	-zum-	.	.	.
16D/K	.	.	.	.	.	.	.
8.G/	4B/ 4d 4g	.	4g/	-ne	.	.	.
16F/Jk	.	.	.	.	.	.	.
=26	=26	=26	=26	=26	=26	=26	=26
*^	*^	*	*	*	*	*	*
8.E\L	4ryy	8.c/L 8.cc	4ryy	>	8.cc\	i	.	.	.
16F\Jk 16c	.	16d/Jk 16an	.	.	16an/	na-	.	.	.
(4c/	4.G\	4.g/	2d\	]	4.g/	-iw-	.	.	.
4B/)	.	.	.	.	.	.	.	.	.
.	8G#X\	8f/	.	.	8f/	-ne	.	.	.
*v	*v	*	*	*	*	*	*	*	*
*	*v	*v	*	*	*	*	*	*
=27	=27	=27	=27	=27	=27	=27	=27
!	!	!	!	!	!	!	!LO:DY:a
4A\	(8d/L 8f	p	8.f/	i	.	.	p
.	8c/J 8e	.	.	.	.	.	.
.	.	.	16e/	od	.	.	.
4r	4e/) 4cc	.	4cc\	in-	.	.	.
4AA/ 4E	4e/ 4cc	.	4cc\	-nych	.	.	.
=28	=28	=28	=28	=28	=28	=28	=28
*^	*^	*	*	*	*	*	*
(4G#X/	4AA\ 4E	8.b/L	(4d\	.	8.b\	ja-	.	.	.
.	.	16cc/Jk	.	.	16cc\	-koś	.	.	.
4A/)	4AA\ 4E	4a/	4c\)	.	4a/	dziw-	.	.	.
4ryy	4AA\ 4E	4e^/	4ryy	.	4a/	-ne	.	.	.
*	*	*v	*v	*	*	*	*	*	*
!!LO:LB:g=original
=29||	=29||	=29||	=29||	=29||	=29||	=29||	=29||	=29||
!	!	!	!	!LO:TX:B:a:t=Poco piu mosso.	!	!	!	!
4r	2.AAA\ 2.AA	4.ee\ 4.eee	mf	2.r	.	.	.	.
4E/ 4A 4c	.	.	.	.	.	.	.	.
.	.	8ccc\L	.	.	.	.	.	.
.	.	(16qqddd/LL	.	.	.	.	.	.
.	.	16qqbb/JJ)	.	.	.	.	.	.
4E/ 4A 4c	.	8ee\ 8bb	.	.	.	.	.	.
.	.	8aa\J	.	.	.	.	.	.
*v	*v	*	*	*	*	*	*	*
=30	=30	=30	=30	=30	=30	=30	=30
4E\ 4G#X 4d	(8ee\L 8bb	.	2.r	.	.	.	.
.	8ccc\J)	.	.	.	.	.	.
4E\ 4A 4c	2a\ 2aa	.	.	.	.	.	.
4AA/ 4E	.	.	.	.	.	.	.
=31	=31	=31	=31	=31	=31	=31	=31
*^	*^	*	*	*	*	*	*
4r	2.AAA\ 2.AA	4.ee/	2e\	.	2.r	.	.	.	.
4E/ 4A 4c	.	.	.	.	.	.	.	.	.
.	.	8cc/L	.	.	.	.	.	.	.
.	.	(16qqdd/LL	.	.	.	.	.	.	.
.	.	16qqcc/JJ)	.	.	.	.	.	.	.
4E/ 4A 4c	.	8b/	4e\	.	.	.	.	.	.
.	.	8a/J	.	.	.	.	.	.	.
=32	=32	=32	=32	=32	=32	=32	=32	=32	=32
4G#X/	4AA\ 4E	(8.b/L	4d\	.	2r	.	.	.	.
.	.	16cc/Jk)	.	.	.	.	.	.	.
2A/	2AA;\ 2E	2a;/	2c\	.	.	.	.	.	.
.	.	.	.	.	4r;	.	.	.	.
*v	*v	*	*	*	*	*	*	*	*
*	*v	*v	*	*	*	*	*	*
=33||	=33||	=33||	=33||	=33||	=33||	=33||	=33||
!	!	!	!LO:TX:a:B:t=Tempo I.	!	!	!	!
(8qCC/	.	.	.	.	.	.	.
2.C/)	4r	.	8.e/	I	.	.	.
.	.	.	16g/	prze-	.	.	.
.	4G/ 4c 4e	.	4.cc\	-mi-	.	.	.
.	4G/ 4c 4e	.	.	.	.	.	.
.	.	.	8dd\	-ną	.	.	.
=34	=34	=34	=34	=34	=34	=34	=34
(8qDD/	.	.	.	.	.	.	.
(2.D\)	8.r	.	8.cc\	wie-	.	.	.
.	16G/ 16B 16f	.	16b\	-ki	.	.	.
.	4G/ 4B 4f	.	4b\	la-	.	.	.
.	4G/ 4B 4f	.	8d/	-ta	.	.	.
.	.	.	8r	.	.	.	.
!!LO:LB:g=original
=35	=35	=35	=35	=35	=35	=35	=35
4GG/)	4r	.	8.d/	po-	.	.	.
.	.	.	16cc\	-kąd	.	.	.
4r	4G/ 4d 4f	.	4.b\	słoń-	.	.	.
4r	4G/ 4B 4f	.	.	.	.	.	.
.	.	.	8d/	-ca	.	.	.
=36	=36	=36	=36	=36	=36	=36	=36
*^	*^	*	*	*	*	*	*
*	*	*	*^	*	*	*	*	*	*
8.r	4CC/ 4C	4r	4ryy	4ryy	.	8.a/	po-	.	.	.
16c\	.	.	.	.	.	16g/	-kąd	.	.	.
2c\	2ryy	(4ff/	2cc\	(<4a\	.	4f/	świa-	.	.	.
.	.	4ee/)	.	4g\)	.	4e/	-ta	.	.	.
*v	*v	*	*	*	*	*	*	*	*	*
*	*v	*v	*v	*	*	*	*	*	*
=37	=37	=37	=37	=37	=37	=37	=37
8.CC/L 8.C	8.c/L 8.e	.	8.e/	wszys-	.	.	.
16G/Jk	16d/Jk 16g	.	16g/	-tkie	.	.	.
!	!	!	!	!	!	!	!LO:DY:a
4C\ 4G	(4.e/ 4.cc	.	4.cc\	kra-	.	.	<
4r	.	.	.	.	.	.	.
.	8dd\)	.	8dd\	-je	.	.	[[
=38	=38	=38	=38	=38	=38	=38	=38
*	*^	*	*	*	*	*	*
8DD/ 8D	8.cc/L	4f\	.	8.cc\	wszel-	.	.	.
8r	.	.	.	.	.	.	.	.
.	16b/Jk	.	.	16b\	-kie	.	.	.
!	!	!	!	!	!	!	!	!LO:DY:a
4D\ 4G 4B	4.f/ 4.b 4.ff	2ryy	sfz	4.ff\	lu-	.	.	sfz
4r	.	.	.	.	.	.	.	.
.	8a/	.	.	8a/	-dy	.	.	.
=39	=39	=39	=39	=39	=39	=39	=39	=39
!	!	!	!	!	!	!	!	!LO:DY:a
4G\	8.a/L	4B\ 4f	p	8.a/	po-	.	.	p
.	16g/Jk	.	.	16g/	-zaz-	.	.	.
2GG/	4.d/ 4.f 4.b	2ryy	.	4.b/	-drosz-	.	.	.
.	8c/ 8f 8a	.	.	8a/	-czą,	.	.	.
*	*v	*v	*	*	*	*	*	*
=40	=40	=40	=40	=40	=40	=40	=40
8G\	8.B/L 8.f 8.g	.	8.g/	nam	.	.	.
8r	.	.	.	.	.	.	.
.	16g/Jk	.	16B/	tej	.	.	.
!	!LO:TX:b:t=rit.	!	!LO:TX:a:t=rall.	!	!	!	!
4BB/	4f/ 4g 4dd	.	4d/	chlu-	.	.	.
4C/	4e/ 4g 4cc	.	4c/	-by	.	.	.
!!LO:PB:g=original
=41||	=41||	=41||	=41||	=41||	=41||	=41||	=41||
*^	*	*	*	*	*	*	*
8r	2.CC\ 2.C	(8cc\L 8ccc	p	2.r	.	.	.	.
(8G/L	.	8b\J) 8bb	.	.	.	.	.	.
8c/ 8e	.	((4.cc\ 4.ccc	.	.	.	.	.	.
8G/	.	.	.	.	.	.	.	.
8c/ 8e	.	.	.	.	.	.	.	.
8G/J)	.	8g\)) 8gg	.	.	.	.	.	.
=42	=42	=42	=42	=42	=42	=42	=42	=42
8r	2.CC\ 2.C	(8cc\L 8ccc	.	2.r	.	.	.	.
(8G/L	.	8b\J) 8bb	.	.	.	.	.	.
8c/ 8e	.	((4.cc\ 4.ccc	.	.	.	.	.	.
8G/	.	.	.	.	.	.	.	.
8c/ 8e	.	.	.	.	.	.	.	.
8G/J)	.	8g\)) 8gg	.	.	.	.	.	.
=43	=43	=43	=43	=43	=43	=43	=43	=43
8r	2.CC\ 2.C	4ee\ 4ccc 4eee	.	2.r	.	.	.	.
(8G/L	.	.	.	.	.	.	.	.
8c/ 8e	.	4gg\ 4eee 4ggg	.	.	.	.	.	.
8G/	.	.	.	.	.	.	.	.
8e/ 8g	.	4ee\ 4ccc 4eee	.	.	.	.	.	.
8G/J)	.	.	.	.	.	.	.	.
=44	=44	=44	=44	=44	=44	=44	=44	=44
8r	2.CC\ 2.C	(8dd\L 8ff 8ddd	.	2.r	.	.	.	.
(8G/L	.	8ee\J) 8gg 8eee	.	.	.	.	.	.
8c/ 8e	.	2cc\ 2ee 2ccc	.	.	.	.	.	.
8G/	.	.	.	.	.	.	.	.
8e/ 8g	.	.	.	.	.	.	.	.
8G/J)	.	.	.	.	.	.	.	.
=45	=45	=45	=45	=45	=45	=45	=45	=45
8r	2.CC\ 2.C	(8cc\L 8ccc	.	2.r	.	.	.	.
(8G/L	.	8b\J) 8bb	.	.	.	.	.	.
8c/ 8e	.	((4.cc\ 4.ccc	.	.	.	.	.	.
8G/	.	.	.	.	.	.	.	.
8c/ 8e	.	.	.	.	.	.	.	.
8G/J)	.	8g\)) 8gg	.	.	.	.	.	.
=46	=46	=46	=46	=46	=46	=46	=46	=46
8r	2.CC\ 2.C	(8cc\L 8ccc	.	2.r	.	.	.	.
(8G/L	.	8b\J) 8bb	.	.	.	.	.	.
8c/ 8e	.	((4.cc\ 4.ccc	.	.	.	.	.	.
8G/	.	.	.	.	.	.	.	.
8c/ 8e	.	.	.	.	.	.	.	.
8G/J)	.	8g\)) 8gg	.	.	.	.	.	.
!!LO:LB:g=original
=47	=47	=47	=47	=47	=47	=47	=47	=47
8r	2.CC\ 2.C	4gg\ 4eee 4ggg	.	2.r	.	.	.	.
(8G/L	.	.	.	.	.	.	.	.
8e/ 8g	.	4ee\ 4ccc 4eee	.	.	.	.	.	.
8G/	.	.	.	.	.	.	.	.
8c/ 8e	.	4cc\ 4ee 4ccc	.	.	.	.	.	.
8G/J)	.	.	.	.	.	.	.	.
*v	*v	*	*	*	*	*	*	*
=48	=48	=48	=48	=48	=48	=48	=48
4C\ 4G 4B	(8dd\L 8ff 8ddd	.	2.r	.	.	.	.
.	8ee\J) 8gg 8eee	.	.	.	.	.	.
4C\ 4G 4c	2cc\ 2ee 2ccc	.	.	.	.	.	.
4C\ 4G 4c	.	.	.	.	.	.	.
=49	=49	=49	=49	=49	=49	=49	=49
*	*^	*	*	*	*	*	*
4C\ 4G 4B	8dd/L	(4f\	.	2.r	.	.	.	.
.	8ee/J	.	.	.	.	.	.	.
4C\ 4G 4c	(4cc/	4e\)	.	.	.	.	.	.
4C\ 4G 4c	4gg/)	4r	.	.	.	.	.	.
=50	=50	=50	=50	=50	=50	=50	=50	=50
*^	*	*	*	*	*	*	*	*
4ryy	4C\ 4G 4B\	8dd/L	4f\	.	2.r	.	.	.	.
.	.	8ee/J	.	.	.	.	.	.	.
8c/L	4C\ 4G	2cc/	2e\	.	.	.	.	.	.
8G/	.	.	.	.	.	.	.	.	.
8E/	4ryy	.	.	.	.	.	.	.	.
8C/J	.	.	.	.	.	.	.	.	.
*v	*v	*	*	*	*	*	*	*	*
*	*clefF4	*	*	*	*	*	*	*
=51	=51	=51	=51	=51	=51	=51	=51	=51
[2.CC/ [2.GG	8d/L	4G\	.	2.r	.	.	.	.
.	8e/J	.	.	.	.	.	.	.
.	(4c/	2E\	.	.	.	.	.	.
.	4g/)	.	.	.	.	.	.	.
=52	=52	=52	=52	=52	=52	=52	=52	=52
2CC/] 2GG]	8d/L	4G\	.	2r	.	.	.	.
.	8e/J	.	.	.	.	.	.	.
.	4c/	4E\	.	.	.	.	.	.
4r;	4r;	4ryy	.	4r;	.	.	.	.
*	*v	*v	*	*	*	*	*	*
*	*clefG2	*	*	*	*	*	*
!!LO:LB:g=original
=53||	=53||	=53||	=53||	=53||	=53||	=53||	=53||
*k[b-]	*k[b-]	*	*k[b-]	*	*	*	*
!	!	!	!LO:TX:B:a:t=Vivo.	!	!	!	!
8.F\L 8.c	8f\ 8a 8ff	f	8.ff\	Hej!	.	.	f
.	8r	.	.	.	.	.	.
16FF\Jk	.	.	16ee\	mło-	.	.	.
4F\	4c/ 4f 4a	.	4ff\	-dzień-	.	.	.
4F\	4c/ 4f 4a	.	4cc\	-cze	.	.	.
=54	=54	=54	=54	=54	=54	=54	=54
8F\	8.f/L 8.b- 8.dd	.	8dd\	u-	.	.	.
8r	.	.	8ff\	-ro-	.	.	.
.	16f/Jk	.	.	.	.	.	.
!	!	!	!	!	!	!	!LO:DY:a
2F\ 2c	((4.a/ 4.cc	>	4.cc\	-dzi-	.	.	>
.	8g/)) 8b-	]]	8b-\	-wy	.	.	]]
=55	=55	=55	=55	=55	=55	=55	=55
!	!	!	!	!	!	!	!LO:DY:a
8.CC/L 8.C	8f/ 8a	p	8a/	jeś-	.	.	p
.	8r	.	8g/	-liś	.	.	.
16C/Jk	.	.	.	.	.	.	.
4C/	4A/ 4c 4f	.	4a/	wdzię-	.	.	.
4C/	4A/ 4c 4f	.	4f/	-ków	.	.	.
=56	=56	=56	=56	=56	=56	=56	=56
8.C/L	8.B-/L 8.c 8.e	.	8g/	nie-	.	.	.
.	.	.	8cc\	-wiast	.	.	.
16C/Jk	16B-/Jk 16c 16e	.	.	.	.	.	.
4F\	4A/ 4c 4f	.	4a/	chci-	.	.	.
4r	4r	.	4f/	-wy	.	.	.
=57	=57	=57	=57	=57	=57	=57	=57
!	!	!	!	!	!	!	!LO:DY:a
8.F\L 8.c	8f\ 8a 8ff	fz	8.ff\	gdyś	.	.	fz
.	8r	.	.	.	.	.	.
16FF\Jk	.	.	16ee\	nie	.	.	.
4F\	4c/ 4f 4a	.	4ff\	zgnuś-	.	.	.
4F\	4c/ 4f 4a	.	4cc\	-niał	.	.	.
!!LO:LB:g=original
=58	=58	=58	=58	=58	=58	=58	=58
8F\	8.b-/L 8.dd	.	8dd\	od	.	.	.
8r	.	.	8ff\	kart	.	.	.
.	16f/Jk	.	.	.	.	.	.
2F\ 2c	((4.a/ 4.cc	>	4.cc\	szklan-	.	.	>
.	8g/)) 8b-	]]	8b-\	-ki	.	.	]]
=59	=59	=59	=59	=59	=59	=59	=59
!	!	!	!	!	!	!	!LO:DY:a
8.CC/L 8.C	8.f/L 8.a	.	8a/	szu-	.	.	p
.	.	.	8g/	-kaj	.	.	.
16C/Jk	16cc/Jk	.	.	.	.	.	.
4C\ 4A	4f/ 4cc	.	4a/	w kra-	.	.	.
4C\ 4A	4f/ 4cc	.	4f/	-ju	.	.	.
=60	=60	=60	=60	=60	=60	=60	=60
8BB-\ 8G 8B-	8.e/L 8.cc	.	8g/	swym	.	.	.
8r	.	.	8a/	ko-	.	.	.
.	16cc/Jk	.	.	.	.	.	.
(4C\ [4c	(((4g\ 4b- 4gg	.	4g/	-chan-	.	.	.
8F\) 8c]	8f\))) 8a 8ff	.	8f/	-ki.	.	.	.
8r;	8r;	.	8r;	.	.	.	.
=61||	=61||	=61||	=61||	=61||	=61||	=61||	=61||
!	!	!	!	!	!	!	!LO:DY:b
8FF/	(8aa\L	p	8a/	Na-	.	.	p
8r	8ccc\J)	.	8cc\	-przód	.	.	.
2F\ 2A 2c 2f	(4.ddd\	.	4.dd\	zwie-	.	.	.
.	8ccc\)	.	8cc\	-dzisz	.	.	.
=62	=62	=62	=62	=62	=62	=62	=62
4F\ 4B- 4c 4e	8.gg\L 8.bb-	.	8g/	kra-	.	.	.
.	.	.	8cc\	-ju	.	.	.
.	16ccc\Jk	.	.	.	.	.	.
4F\ 4A 4c 4f	4ff\ 4aa	.	4a/	czo-	.	.	.
4F\ 4A 4c 4f	4cc\ 4ccc	.	4cc\	-ło	.	.	.
!!LO:PB:g=original
=63	=63	=63	=63	=63	=63	=63	=63
8FF/	(8ff\L 8aa	.	8a/	mło-	.	.	.
8r	8ccc\J)	.	8cc\	-dym	.	.	.
2F\ 2A 2c 2f	(4.ddd\	.	4.dd\	ser-	.	.	.
.	8ccc\)	.	8cc\	-com	.	.	.
=64	=64	=64	=64	=64	=64	=64	=64
4F\ 4B- 4c 4e	8.ee\L 8.gg	.	8g/	tam	.	.	.
.	.	.	8cc\	we-	.	.	.
.	16ccc\Jk	.	.	.	.	.	.
4F\ 4A 4c 4f	4ff\ 4aa	.	4a/	-so-	.	.	.
4F\ 4A 4c 4f	4cc\ 4ccc	<[	4cc\	-ło	.	.	.
=65	=65	=65	=65	=65	=65	=65	=65
!	!	!	!	!	!	!	!LO:DY:a
8.F\L 8.A 8.c 8.f	8ff\ 8aa 8fff	fz	8.ff\	tam	.	.	f
.	8r	.	.	.	.	.	.
16FF\Jk	.	.	16ee\	jest	.	.	.
4F\	4c/ 4f 4a	.	4ff\	wszyst-	.	.	.
4F\	4c/ 4f 4a	.	4cc\	-ko	.	.	.
=66	=66	=66	=66	=66	=66	=66	=66
8FF/	8.d/L 8.b- 8.dd	.	8dd\	co	.	.	.
!	!	!	!	!	!	!	!LO:DY:a
8r	.	.	8ff\	naj-	.	.	>
.	16f/Jk	.	.	.	.	.	.
2F\ 2c	((4.a/ 4.cc	>	4.cc\	-now-	.	.	]
.	8g/)) 8b-	]]	8b-\	-sze	.	.	.
=67	=67	=67	=67	=67	=67	=67	=67
8.CC/L	8.f/L 8.a	.	8a/	bo	.	.	.
.	.	.	8g/	też	.	.	.
16C/Jk	16cc/Jk	.	.	.	.	.	.
4C\ 4A	4f/ 4cc	.	4a/	mi-	.	.	.
4C\ 4A	4f/ 4cc	.	4f/	-łe	.	.	.
!!LO:LB:g=original
=68	=68	=68	=68	=68	=68	=68	=68
8C\ 8G 8B-	8.e/L 8.cc	.	8g/	to	.	.	.
8r	.	.	8a/	ma-	.	.	.
.	16cc/Jk	.	.	.	.	.	.
(<4E\ [4c	(<4g\ (>4b- (>4gg	.	4g/	-zow-	.	.	.
4F\) 4c]	4f\) 4a) 4ff)	.	4f/	-sze.	.	.	.
=69	=69	=69	=69	=69	=69	=69	=69
8FF/ 8F	8.ff\L 8.aa 8.fff	ff	2.r	.	.	.	.
8r	.	.	.	.	.	.	.
.	16ee\Jk 16bb- 16eee	.	.	.	.	.	.
4A\ 4c 4f	4ff\ 4aa 4fff	.	.	.	.	.	.
4c\ 4f 4a	4cc\ 4aa 4ccc	.	.	.	.	.	.
=70	=70	=70	=70	=70	=70	=70	=70
8.BBB-/L 8.BB-	8dd\L 8bb- 8ddd	.	2.r	.	.	.	.
.	8ff\J 8fff	.	.	.	.	.	.
16DD/Jk 16D	.	.	.	.	.	.	.
4FF/ 4F	(<4.cc\ (>4.aa (>4.ccc	.	.	.	.	.	.
4c\	.	.	.	.	.	.	.
.	8b-\) 8gg) 8bb-)	.	.	.	.	.	.
=71	=71	=71	=71	=71	=71	=71	=71
(4C/	8.a\L 8.ff 8.aa	.	2.r	.	.	.	.
.	16b-\Jk 16gg	.	.	.	.	.	.
4A\ 4f)	4cc\ 4aa	.	.	.	.	.	.
4A\ 4f	4a\ 4ff	.	.	.	.	.	.
=72	=72	=72	=72	=72	=72	=72	=72
4F\ 4c 4e	8.b-\L 8.gg	.	2.r	.	.	.	.
.	16aa\Jk	.	.	.	.	.	.
2F\ 2c 2f	2a\ 2ff	.	.	.	.	.	.
=73	=73	=73	=73	=73	=73	=73	=73
!	!	!	!	!	!	!	!LO:DY:a
8FF/	(8aa\L	p	8a/	Lud	.	.	p
8r	8ccc\J)	.	8cc\	tam	.	.	.
2F\ 2A 2c 2f	(4.ddd\	.	4.dd\	szcze-	.	.	.
.	8ccc\)	.	8cc\	-ry	.	.	.
!!LO:LB:g=original
=74	=74	=74	=74	=74	=74	=74	=74
4F\ 4B- 4c 4e	8.ee\L 8.gg	.	8g/	bez	.	.	.
.	.	.	8cc\	o-	.	.	.
.	16ccc\Jk	.	.	.	.	.	.
4F\ 4A 4c 4f	4ff\ 4aa	.	4a/	-błu-	.	.	.
4F\ 4A 4c 4f	4cc\ 4ccc	.	4cc\	-dy	.	.	.
=75	=75	=75	=75	=75	=75	=75	=75
8FF/	(8ff\L 8aa	.	8a/	prze-	.	.	.
8r	8ccc\J)	.	8cc\	-trwał	.	.	.
2F\ 2A 2c 2f	(4.ddd\	.	4.dd\	lo-	.	.	.
.	8ccc\)	.	8cc\	-su	.	.	.
=76	=76	=76	=76	=76	=76	=76	=76
4F\ 4B- 4c 4e	8.ee\L 8.gg	.	8g/	cięż-	.	.	.
.	.	.	8cc\	-kie	.	.	.
.	16ccc\Jk	.	.	.	.	.	.
4F\ 4A 4c 4f	4ff\ 4aa	.	4a/	pró-	.	.	.
4F\ 4A 4c 4f	4cc\ 4ccc	<[	4cc\	-by	.	.	.
=77	=77	=77	=77	=77	=77	=77	=77
!	!	!	!	!	!	!	!LO:DY:a
8.F\L 8.A 8.c 8.f	8ff\ 8aa 8fff	fz	8.ff\	tam	.	.	mf
.	8r	.	.	.	.	.	.
16FF\Jk	.	.	16ee\	kwiat	.	.	.
4F\	4c/ 4f 4a	.	4ff\	nie-	.	.	.
4F\	4c/ 4f 4a	.	4cc\	-wiast	.	.	.
=78	=78	=78	=78	=78	=78	=78	=78
8FF/	8.d/L 8.b- 8.dd	.	8dd\	zaw-	.	.	.
8r	.	.	8ff\	-sze	.	.	.
.	16f/Jk	.	.	.	.	.	.
!	!	!	!	!	!	!	!LO:DY:a
2F\ 2c	((4.a/ 4.cc	>	4.cc\	no-	.	.	>
.	8g/)) 8b-	]]	8b-\	-wych	.	.	]]
!!LO:LB:g=original
=79	=79	=79	=79	=79	=79	=79	=79
8.CC/L	8.f/L 8.a	.	8a/	z ser-	.	.	.
.	.	.	8g/	-cem	.	.	.
16C/Jk	16cc/Jk	.	.	.	.	.	.
4C\ 4A	4f/ 4cc	.	4a/	u-	.	.	.
4C\ 4A	4f/ 4cc	.	4f/	-czuć	.	.	.
=80	=80	=80	=80	=80	=80	=80	=80
8C\ 8G 8B-	8.e/L 8.cc	.	8g/	na-	.	.	.
8r	.	.	8a/	-ro-	.	.	.
.	16cc/Jk	.	.	.	.	.	.
(<4E\ [4c	(<4g\ (>4b- (>4gg	.	4g/	-do-	.	.	.
4F\) 4c]	4f\) 4a) 4ff)	.	4f/	-wych.	.	.	.
=81	=81	=81	=81	=81	=81	=81	=81
8FF/ 8F	8.ff\L 8.aa 8.fff	ff	2.r	.	.	.	.
8r	.	.	.	.	.	.	.
.	16ee\Jk 16bb- 16eee	.	.	.	.	.	.
4A\ 4c 4f	4ff\ 4aa 4fff	.	.	.	.	.	.
4c\ 4f 4a	4cc\ 4aa 4ccc	.	.	.	.	.	.
=82	=82	=82	=82	=82	=82	=82	=82
8.BBB-/L 8.BB-	8dd\L 8bb- 8ddd	.	2.r	.	.	.	.
.	8ff\J 8fff	.	.	.	.	.	.
16DD/Jk 16D	.	.	.	.	.	.	.
4FF/ 4F	(<4.cc\ (>4.aa (>4.ccc	.	.	.	.	.	.
4c^\	.	.	.	.	.	.	.
.	8b-\) 8gg) 8bb-)	.	.	.	.	.	.
=83	=83	=83	=83	=83	=83	=83	=83
(4C/	8.a\L 8.ff 8.aa	.	2.r	.	.	.	.
.	16b-\Jk 16gg	.	.	.	.	.	.
4A\ 4f)	4cc\ 4aa	.	.	.	.	.	.
4A\ 4f	4a\ 4ff	.	.	.	.	.	.
=84	=84	=84	=84	=84	=84	=84	=84
4F\ 4c 4e	(8.b-\L 8.gg	.	2.r;	.	.	.	.
.	16aa\Jk)	.	.	.	.	.	.
4F\ 4c 4f	4a\ 4ff	.	.	.	.	.	.
4r;	4r;	.	.	.	.	.	.
!!LO:PB:g=original
=85||	=85||	=85||	=85||	=85||	=85||	=85||	=85||
!	!	!LO:HP:t=mfp	!LO:TX:B:a:t=Andante.	!	!	!	!
2.D\	2.f/ 2.a	fp	2.r	.	.	.	.
=86	=86	=86	=86	=86	=86	=86	=86
2.C/	2.e/ 2.a	.	2.r	.	.	.	.
=87	=87	=87	=87	=87	=87	=87	=87
*^	*^	*	*	*	*	*	*
4ryy	8BB-\L	2.dd/	[4a\	.	2.r	.	.	.	.
.	8D\J	.	.	.	.	.	.	.	.
[4d/	4G\	.	8a\L]	.	.	.	.	.	.
.	.	.	8g\	.	.	.	.	.	.
8d/L]	4B-\	.	8f\	.	.	.	.	.	.
8e/J	.	.	8g\J	.	.	.	.	.	.
*v	*v	*	*	*	*	*	*	*	*
*	*v	*v	*	*	*	*	*	*
=88	=88	=88	=88	=88	=88	=88	=88
2.A;\ 2.e	2.a;\ 2.cc#X 2.aa	.	2.r;	.	.	.	.
=89	=89	=89	=89	=89	=89	=89	=89
!	!	!	!	!	!	!	!LO:DY:a
2DD/ 2D	2A/ 2f 2a	p	2a/	Gdy	.	.	p
4DD/ 4D	4A/ 4f 4a	.	4a/	cię	.	.	.
=90	=90	=90	=90	=90	=90	=90	=90
2GG/ 2G	2B-/ 2d 2b-	.	2b-\	do-	.	.	.
4DD/ 4D	4A/ 4f 4a	.	4a/	-tkną	.	.	.
=91	=91	=91	=91	=91	=91	=91	=91
*	*^	*	*	*	*	*	*
2CC/ 2C	(2a/	4.A\ 4.e	.	2a/	ża-	.	.	.
.	.	8d\	.	.	.	.	.	.
4BBB-/ 4BB-	4g/)	8G\L 8e	.	4g/	-le	.	.	.
.	.	8d\J	.	.	.	.	.	.
=92	=92	=92	=92	=92	=92	=92	=92	=92
*^	*	*	*	*	*	*	*	*
2.A/	4AAA/ 4AA	(2a/	4c#X\	.	2a/	tros-	.	.	.
.	4BBBn/ 4BBn	.	4d\	.	.	.	.	.	.
.	4CC#X/ 4C#X	4g/)	4e\	.	4g/	-ki	.	.	.
!!LO:LB:g=original
=93	=93	=93	=93	=93	=93	=93	=93	=93	=93
2.A/	2.DD\ 2.D	(2g/	4e\	.	2g/	spiesz	.	.	.
.	.	.	4c#X\	.	.	.	.	.	.
.	.	4f/)	4d\	.	4f/	do	.	.	.
*v	*v	*	*	*	*	*	*	*	*
=94	=94	=94	=94	=94	=94	=94	=94	=94
(4FF/ 4F	(2dd/	4d\ 4a	.	2dd\	mat-	.	.	.
4AA/	.	4f\	.	.	.	.	.	.
4D/)	4f/)	4d\	.	4f/	-ki	.	.	.
*	*v	*v	*	*	*	*	*	*
=95	=95	=95	=95	=95	=95	=95	=95
2BB-/	2d/ 2e 2g	<	2g/	Czę-	.	.	.
4GG/	4d/ 4e 4b-	.	4b-\	-sto-	.	.	.
=96	=96	=96	=96	=96	=96	=96	=96
*	*^	*	*	*	*	*	*
4.AA/	2a/	4c#X\ 4e	.	2a/	-chow-	.	.	.
.	.	8A\L	.	.	.	.	.	.
8GG/L	.	8e\	.	.	.	.	.	.
8FF/	4a/	8A\	.	4a/	-skiej	.	.	.
8EE/J	.	8c#\J 8g	.	.	.	.	.	.
*	*v	*v	*	*	*	*	*	*
=97	=97	=97	=97	=97	=97	=97	=97
!	!	!LO:DY:b	!	!	!	!	!LO:DY:a
2DD/	2f/ 2a 2ff	fz	2ff\	Proś	.	.	mf
4D\ 4A	4f/ 4a 4ff	.	4ff\	niech	.	.	.
=98	=98	=98	=98	=98	=98	=98	=98
2AA\ 2A	2g\ 2cc#X 2ee	.	2ee\	w łas-	.	.	.
4BB-\ 4B-	4f/ 4dd	.	4dd\	-ce	.	.	.
=99	=99	=99	=99	=99	=99	=99	=99
*^	*^	*	*	*	*	*	*
2c/	4C\	(2ccn/	4e\	.	2cc\	swej	.	.	.
.	4D\	.	4f\	.	.	.	.	.	.
!	!	!	!	!	!	!	!	!	!LO:DY:a
4c/	4E\	4b-/)	4g\	.	4b-\	za-	.	.	>
*v	*v	*	*	*	*	*	*	*	*
=100	=100	=100	=100	=100	=100	=100	=100	=100
2F\ 2c	2b-/	4g\	.	2b-\	-cho-	.	.	]
.	.	4e\	.	.	.	.	.	.
4F\ 4c	4a/	4f\	.	4a/	-wa	.	.	.
*	*v	*v	*	*	*	*	*	*
=101	=101	=101	=101	=101	=101	=101	=101
!	!	!	!	!	!	!	!LO:DY:a
2B-\ 2d	2f/ 2a	p	2a/	i	.	.	p
4B-\ 4d	4e/ 4g	.	4g/	skie-	.	.	.
!!LO:LB:g=original
=102	=102	=102	=102	=102	=102	=102	=102
2G\ 2B-	2f/ 2a	.	2a/	-ru-	.	.	.
4G\ 4B-	4e/ 4g	.	4g/	-je	.	.	.
=103	=103	=103	=103	=103	=103	=103	=103
*^	*	*	*	*	*	*	*
2A/	4A\	2d/ 2f	.	2f/	do	.	.	.
.	4AA\	.	.	.	.	.	.	.
4G/	4AA\	4c#X/ 4e	.	4e/	Kra-	.	.	.
*v	*v	*	*	*	*	*	*	*
=104	=104	=104	=104	=104	=104	=104	=104
2DD/ 2D	2F/ 2A 2e	.	2e/	-ko-	.	.	.
4DD/ 4D	4F/ 4A 4d	.	4d/	-wa.	.	.	.
=105	=105	=105	=105	=105	=105	=105	=105
*^	*^	*	*	*	*	*	*
8C#X/L	4AA\	(2ff/	4a\	.	2.r	.	.	.	.
8A/	.	.	.	.	.	.	.	.	.
8D/	4BBn\	.	4g#X\	.	.	.	.	.	.
8A/	.	.	.	.	.	.	.	.	.
8E/	4C#X\	4ee/)	4gn\	.	.	.	.	.	.
8A/J	.	.	.	.	.	.	.	.	.
=106	=106	=106	=106	=106	=106	=106	=106	=106	=106
4r	2D\	2ff/	8f\L	.	2.r	.	.	.	.
.	.	.	8a\	.	.	.	.	.	.
4A/	.	.	8f\	.	.	.	.	.	.
.	.	.	8a\	.	.	.	.	.	.
4B-/	4G\	4ee/	8g\	.	.	.	.	.	.
.	.	.	8e\J	.	.	.	.	.	.
=107	=107	=107	=107	=107	=107	=107	=107	=107	=107
2A/	2A\	2dd/	8f\L	.	2.r	.	.	.	.
.	.	.	8a\	.	.	.	.	.	.
.	.	.	8f\	.	.	.	.	.	.
.	.	.	8a\	.	.	.	.	.	.
4G/	4AA\	4cc#X/	8e\	.	.	.	.	.	.
.	.	.	8a\J	.	.	.	.	.	.
*v	*v	*	*	*	*	*	*	*	*
=108	=108	=108	=108	=108	=108	=108	=108	=108
2D\ 2F	2dd/	8f\L	.	2.r	.	.	.	.
.	.	8a\	.	.	.	.	.	.
.	.	8f\	.	.	.	.	.	.
.	.	8d\J	.	.	.	.	.	.
4DD/ 4D	8ccn/L	8a\L	.	.	.	.	.	.
.	8b-/J	8g\J	.	.	.	.	.	.
*	*v	*v	*	*	*	*	*	*
=109	=109	=109	=109	=109	=109	=109	=109
!	!	!	!	!	!	!	!LO:DY:a
2DD/ 2D	2A/ 2f 2a	p	2a/	Tam	.	.	p
4DD/ 4D	4A/ 4f 4a	.	4a/	są	.	.	.
!!LO:LB:g=original
=110	=110	=110	=110	=110	=110	=110	=110
2GG/ 2G	2B-/ 2d 2b-	.	2b-\	gro-	.	.	.
4DD/ 4D	4A/ 4f 4a	.	4a/	-by	.	.	.
=111	=111	=111	=111	=111	=111	=111	=111
*	*^	*	*	*	*	*	*
2CC/ 2C	(2a/	4.A\ 4.e	.	2a/	kró-	.	.	.
.	.	8d\	.	.	.	.	.	.
4BBB-/ 4BB-	4g/)	8G\L 8e	.	4g/	-lów	.	.	.
.	.	8d\J	.	.	.	.	.	.
=112	=112	=112	=112	=112	=112	=112	=112	=112
*^	*	*	*	*	*	*	*	*
2.A/	4AAA/ 4AA	(2a/	4c#X\	.	2a/	wiel-	.	.	.
.	4BBBn/ 4BBn	.	4d\	.	.	.	.	.	.
.	4CC#X/ 4C#X	4g/)	4e\	.	4g/	-kich	.	.	.
=113	=113	=113	=113	=113	=113	=113	=113	=113	=113
2.A/	2.DD\ 2.D	(2g/	4e\	.	2g/	tam	.	.	.
.	.	.	4c#X\	.	.	.	.	.	.
.	.	4f/)	4d\	.	4f/	pa-	.	.	.
*v	*v	*	*	*	*	*	*	*	*
=114	=114	=114	=114	=114	=114	=114	=114	=114
(4FF/ 4F	(2dd/	4d\ 4a	.	2dd\	-mią-	.	.	.
4AA/	.	4f\	.	.	.	.	.	.
4D/)	4f/)	4d\	.	4f/	-tek	.	.	.
*	*v	*v	*	*	*	*	*	*
=115	=115	=115	=115	=115	=115	=115	=115
2BB-/	2d/ 2e 2g	<	2g/	peł-	.	.	.
4GG/	4d/ 4e 4b-	[[	4b-\	-no	.	.	.
=116	=116	=116	=116	=116	=116	=116	=116
*	*^	*	*	*	*	*	*
4.AA/	2a/	4c#X\ 4e	.	2a/	wszel-	.	.	.
.	.	8A\L	.	.	.	.	.	.
8GG/L	.	8e\	.	.	.	.	.	.
8FF/	4a/	8A\ 8a	.	4a/	-kich	.	.	.
8EE/J	.	8c#\J 8g	.	.	.	.	.	.
*	*v	*v	*	*	*	*	*	*
=117	=117	=117	=117	=117	=117	=117	=117
!	!	!	!	!	!	!	!LO:DY:a
2DD/	2f/ 2a 2ff	fz	2ff\	ser-	.	.	mf
4D\ 4A	4f/ 4a 4ff	.	4ff\	-cu	.	.	.
!!LO:PB:g=original
=118	=118	=118	=118	=118	=118	=118	=118
2AA 2A	2g 2cc#X 2ee	.	2ee	dro-	.	.	.
4BB- 4B-	4f 4dd	.	4dd	-gich	.	.	.
=119	=119	=119	=119	=119	=119	=119	=119
*^	*^	*	*	*	*	*	*
2c	4C	(2ccn	4e	.	2cc	bo	.	.	.
.	4D	.	4f	.	.	.	.	.	.
!	!	!	!	!	!	!	!	!	!LO:DY:a
4c	4E	4b-)	4g	.	4b-	oj-	.	.	>
*v	*v	*	*	*	*	*	*	*	*
=120	=120	=120	=120	=120	=120	=120	=120	=120
2F 2c	2b-	4g	.	2b-	-czy-	.	.	.
.	.	4e	.	.	.	.	.	]
4F 4c	4a	4f	.	4a	-stych	.	.	.
*	*v	*v	*	*	*	*	*	*
=121	=121	=121	=121	=121	=121	=121	=121
!	!	!	!	!	!	!	!LO:DY:a
2B- 2d	2f 2a	p	2a	nie	.	.	p
4B- 4d	4e 4g	.	4g	za-	.	.	.
=122	=122	=122	=122	=122	=122	=122	=122
2G 2B-	2f 2a	.	2a	-tar-	.	.	.
4G 4B-	4e 4g	.	4g	-tytch	.	.	.
=123	=123	=123	=123	=123	=123	=123	=123
*^	*	*	*	*	*	*	*
2A	4A	2d 2f	.	2f	wie-	.	.	.
.	4AA	.	.	.	.	.	.	.
4G	4AA	4c#X 4e	.	4e	-ku-	.	.	.
*v	*v	*	*	*	*	*	*	*
=124	=124	=124	=124	=124	=124	=124	=124
2DD 2D	2F< 2A 2e	.	2e	-is-	.	.	.
4DD 4D	4F< 4A 4d	.	4d	-tych	.	.	.
!!LO:LB:original
=125	=125	=125	=125	=125	=125	=125	=125
*^	*^	*	*	*	*	*	*
8C#XL	4AA	(2ff	4a	.	2.r	.	.	.	.
8A	.	.	.	.	.	.	.	.	.
8D	4BBn	.	4g#X	.	.	.	.	.	.
8A	.	.	.	.	.	.	.	.	.
8E	4C#	4ee)	4gn	.	.	.	.	.	.
8AJ	.	.	.	.	.	.	.	.	.
=126	=126	=126	=126	=126	=126	=126	=126	=126	=126
4r	2D	2ff	8fL	.	2.r	.	.	.	.
.	.	.	8a	.	.	.	.	.	.
4A	.	.	8f	.	.	.	.	.	.
.	.	.	8a	.	.	.	.	.	.
4B-	4G	4ee	8g	.	.	.	.	.	.
.	.	.	8eJ	.	.	.	.	.	.
=127	=127	=127	=127	=127	=127	=127	=127	=127	=127
2A	2A	2dd	8fL	.	2.r	.	.	.	.
.	.	.	8a	.	.	.	.	.	.
.	.	.	8f	.	.	.	.	.	.
.	.	.	8a	.	.	.	.	.	.
4G	4AA	4cc#X	8e	.	.	.	.	.	.
.	.	.	8aJ	.	.	.	.	.	.
=128	=128	=128	=128	=128	=128	=128	=128	=128	=128
2F	2D	2dd	8fL	.	2.r	.	.	.	.
.	.	.	8a	.	.	.	.	.	.
.	.	.	8f	.	.	.	.	.	.
.	.	.	8aJ	.	.	.	.	.	.
8GL	4C	8.eeL	8b-L	.	.	.	.	.	.
8cJ	.	.	8gJ	.	.	.	.	.	.
.	.	16ddJk	.	.	.	.	.	.	.
*v	*v	*	*	*	*	*	*	*	*
*	*v	*v	*	*	*	*	*	*
=129	=129	=129	=129	=129	=129	=129	=129
2FF 2F	2c 2a 2cc	.	2cc	A	.	.	.
4FF 4F	4c 4a 4cc	<[	4cc	gdy	.	.	.
=130	=130	=130	=130	=130	=130	=130	=130
2BB- 2B-	2d 2f 2dd	.	2dd	uj-	.	.	.
4AA 4A	4c 4f 4cc	>]	4cc	-rzysz	.	.	.
=131	=131	=131	=131	=131	=131	=131	=131
2GG 2G	2c 2e 2b-	.	2b-	gród	.	.	.
4FF 4F	4c 4f 4a	.	4a	zgrzy-	.	.	.
=132	=132	=132	=132	=132	=132	=132	=132
2EE 2E	2c 2g 2b-	.	2b-	-bia-	.	.	.
4FF 4F	4c 4f 4a	.	4a	-ły	.	.	.
!!LO:LB:original
=133	=133	=133	=133	=133	=133	=133	=133
2D 2F	2d 2a	.	2a	sta-	.	.	.
4E 4G	4d 4a	.	4a	-ry	.	.	.
=134	=134	=134	=134	=134	=134	=134	=134
4F 4A	2d 2dd	.	2dd	Wa-	.	.	.
4E 4G	.	.	.	.	.	.	.
4D 4F	4d 4f	.	4f	-wel	.	.	.
=135	=135	=135	=135	=135	=135	=135	=135
*	*^	*	*	*	*	*	*
4BB- 4B-	2e 2g	4d	.	2g	po-	.	.	.
4GG 4G	.	4B-	.	.	.	.	.	.
!	!	!	!	!	!	!	!	!LO:DY:a
4EE 4E	4d 4b-	4g	<	4b-	-si-	.	.	<
=136	=136	=136	=136	=136	=136	=136	=136	=136
4.AA 4.A	2e 2a	4c#X	.	2a	-wia-	.	.	.
.	.	4A	.	.	.	.	.	.
8GGL 8G	.	.	.	.	.	.	.	.
8FF 8F	4a	8AL 8a	.	4a	-ły	.	.	.
8EEJ 8E	.	8c#J 8g	.	.	.	.	.	.
*	*v	*v	*	*	*	*	*	*
=137	=137	=137	=137	=137	=137	=137	=137
!	!	!	!	!	!	!	!LO:DY:a
2DD 2D	2f 2a 2ff	fz	2ff	schyl	.	.	fz
4DD 4D	4f 4a 4ff	.	4ff	swe	.	.	.
=138	=138	=138	=138	=138	=138	=138	=138
2AAA 2AA	2e 2ccn 2ee	.	2ee	czo-	.	.	.
4BBB- 4BB-	4d 4b- 4dd	.	4dd	-ło	.	.	.
=139	=139	=139	=139	=139	=139	=139	=139
*	*^	*	*	*	*	*	*
*	*	*^	*	*	*	*	*	*
4CC 4C	2a 2cc	2c	4e\	.	2cc	przed	.	.	.
4DD 4D	.	.	4f\	.	.	.	.	.	.
!	!	!	!	!LO:HP:t=dim.	!	!	!	!	!LO:DY:a
4EE 4E	4g 4b-	4c	4g\	>	4b-	star-	.	.	>
=140	=140	=140	=140	=140	=140	=140	=140	=140	=140
4FF 4F	2b-	2c	4g\	.	2b-	-ca-	.	.	.
4GG 4G	.	.	4e/	.	.	.	.	.	.
4AA 4A	4a	4c	4f/	.	4a	-mi	.	.	]
*	*v	*v	*v	*	*	*	*	*	*
!!LO:LB:original
=141	=141	=141	=141	=141	=141	=141	=141
!	!	!	!	!	!	!	!LO:DY:a
2BB- 2B-	2d 2f 2a	p	2a	zlej	.	.	p
4BB- 4B-	4d 4e 4g	.	4g	ich	.	.	.
=142	=142	=142	=142	=142	=142	=142	=142
2GG 2G	2B- 2f 2a	.	2a	dro-	.	.	.
4GG 4G	4B- 4e 4g	.	4g	-gie	.	.	.
=143	=143	=143	=143	=143	=143	=143	=143
4AA	2A 2d 2f	.	2f	sto-	.	.	.
4AAA 4AA	.	.	.	.	.	.	.
4AAA 4AA	4G< 4c#X 4e	.	4e	-py	.	.	.
=144	=144	=144	=144	=144	=144	=144	=144
2DD 2D	2F< 2A< 2e	.	2e	łza-	.	.	.
4DD 4D	4F< 4A< 4d	.	4d	-mi.	.	.	.
=145	=145	=145	=145	=145	=145	=145	=145
*^	*^	*	*	*	*	*	*
8EL	4AA	(2aa	8cc#XL	.	2.r	.	.	.	.
8A	.	.	8a	.	.	.	.	.	.
8E	4BB-	.	8dd	.	.	.	.	.	.
8A	.	.	8a	.	.	.	.	.	.
8E	4C#X	4gg)	8ee	.	.	.	.	.	.
8AJ	.	.	8aJ	.	.	.	.	.	.
=146	=146	=146	=146	=146	=146	=146	=146	=146	=146
8FL	4D	(2ff	8ddL	.	2.r	.	.	.	.
8A	.	.	8a	.	.	.	.	.	.
8F	4F	.	8dd	.	.	.	.	.	.
8A	.	.	8a	.	.	.	.	.	.
8G	4G	4ee)	8b-	.	.	.	.	.	.
8B-J	.	.	8gJ	.	.	.	.	.	.
*v	*v	*	*	*	*	*	*	*	*
=147	=147	=147	=147	=147	=147	=147	=147	=147
2A	2dd	8fL	.	2.r	.	.	.	.
.	.	8a	.	.	.	.	.	.
.	.	8f	.	.	.	.	.	.
.	.	8a	.	.	.	.	.	.
4AA/ 4A/	4cc#X	8e	.	.	.	.	.	.
.	.	8gJ	.	.	.	.	.	.
=148	=148	=148	=148	=148	=148	=148	=148	=148
4D 4A	4dd	4f	.	2.r	.	.	.	.
2C 2G 2c	2b- 2ee	2e	sfz	.	.	.	.	.
*	*v	*v	*	*	*	*	*	*
!!LO:PB:original
=149||	=149||	=149||	=149||	=149||	=149||	=149||	=149||
!	!	!	!LO:TX:B:a:t=Allegro tempo I.	!	!	!	!LO:DY:a
8FF 8C 8F	8f 8a 8ff	sf	8ff	Tam	.	.	f
8r	8r	.	8ff	nie	.	.	.
[2F	((4.e 4.ee	>	4.ee	jed-	.	.	.
.	8d)) 8b-	]]	8dd	-na	.	.	.
=150	=150	=150	=150	=150	=150	=150	=150
8.FL]	8.dL 8.b-	p	8.dd	Wan-	.	.	.
16FJk	16cJk 16a	.	16cc	-da	.	.	.
4F	4c 4a	.	4cc	no-	.	.	.
4F	4A 4f	.	4a	-wa	.	.	.
=151	=151	=151	=151	=151	=151	=151	=151
8FF 8C 8F	8f 8a 8ff	fz	8.ff	dla	.	.	.
8r	8r	.	.	.	.	.	.
.	.	.	16ff	ro-	.	.	.
[2F	((4.e 4.cc	>	4.ee	-da-	.	.	.
.	8d)) 8b-	]]	8dd	-ka	.	.	.
=152	=152	=152	=152	=152	=152	=152	=152
8.FL]	8.dL 8.b-	p	8.dd	ser-	.	.	.
16FJk	16cJk 16a	.	16cc	-ce	.	.	.
4F	4c 4a	.	4cc	cho-	.	.	.
4F	4A 4f	.	4a	-wa	.	.	.
!!LO:LB:original
=153	=153	=153	=153	=153	=153	=153	=153
!	!	!	!	!	!	!	!LO:DY:a
4CC 4C	8.r	pp	8.a	prę-	.	.	p
.	16cc	.	16g	-dzej	.	.	.
4G 4B- 4e	4cc	.	4g	ra-	.	.	.
4G 4B- 4e	4cc	.	4dd	-da	.	.	.
=154	=154	=154	=154	=154	=154	=154	=154
4FF 4F	8.r	.	8.dd	pójść	.	.	.
.	16cc	.	16cc	na	.	.	.
4A 4c 4f	4cc	.	4.cc	mę-	.	.	.
4A 4c 4f	4cc	.	.	.	.	.	.
.	.	.	8a	-kę	.	.	.
=155	=155	=155	=155	=155	=155	=155	=155
4CC 4C	8.r	.	8.cc	niż	.	.	.
.	16cc	.	16bn	niem-	.	.	.
4G 4B- 4e	4cc	.	4.b-	-co-	.	.	.
4G 4B- 4e	4cc	.	.	.	.	.	.
.	.	.	8g	-wi	.	.	.
=156	=156	=156	=156	=156	=156	=156	=156
4FF 4F	8.r	.	8.g	od-	.	.	.
.	16cc	.	16f	-dać	.	.	.
4A 4c 4f	4cc	.	4f	rę-	.	.	.
4A 4c 4f	4cc	.	4f	-kę	.	.	.
!!LO:LB:original
=157	=157	=157	=157	=157	=157	=157	=157
*	*^	*	*	*	*	*	*
4CC 4C	8.r	8.fL	.	8.a	prę-	.	.	.
.	16cc	16eJk	.	16g	-dzej	.	.	.
4G 4B-	4cc	4e	.	4g	ra-	.	.	.
4G 4B- 4e	4cc	4b-	.	4dd	-da	.	.	.
=158	=158	=158	=158	=158	=158	=158	=158	=158
4FF 4F	8.r	8.b-L	.	8.dd	pójść	.	.	.
.	16cc	16aJk	.	16cc	na	.	.	.
4F 4c	4cc	4.a	.	4.cc	mę-	.	.	.
4A 4c	4cc	.	.	.	.	.	.	.
.	.	8f	.	8a	-kę	.	.	.
*	*v	*v	*	*	*	*	*	*
=159	=159	=159	=159	=159	=159	=159	=159
*^	*	*	*	*	*	*	*
8.r	4CC 4C	8.aL 8.cc 8.aa	.	8.cc	niż	.	.	.
16c	.	16g#XJk 16bn 16gg#X	.	16bn	niem-	.	.	.
4c	4ryy	(<4.gn (>4.b-X (>4.ggn	.	4.b	-co-	.	.	.
4c	4ryy	.	.	.	.	.	.	.
.	.	8e) 8g) 8ee)	.	8g	-wi	.	.	.
*v	*v	*	*	*	*	*	*	*
=160	=160	=160	=160	=160	=160	=160	=160
8.FFL	(8.gL 8.b- 8.gg	.	8.gL	od-	.	.	.
16FJk 16c	16fJk) 16a 16ff	.	16fJk	-dać	.	.	.
4F 4c	4f 4a 4ff	.	4f	rę-	.	.	.
4r	4c^ 4cc	.	4f	-kę	.	.	.
=161	=161	=161	=161	=161	=161	=161	=161
4FF 4F	4c 4a 4cc	ff	2.r	.	.	.	.
4F 4A 4c	4f 4ff	.	.	.	.	.	.
4F 4B- 4c 4e	4g 4gg	.	.	.	.	.	.
!!LO:LB:original
=162	=162	=162	=162	=162	=162	=162	=162
4F 4A 4c 4f	4a 4aa	.	2.r	.	.	.	.
2F 2A 2c 2f	4.cc^< 4.ccc	.	.	.	.	.	.
.	8a 8aa	.	.	.	.	.	.
=163	=163	=163	=163	=163	=163	=163	=163
4F 4B- 4c 4e	4g 4gg	.	2.r	.	.	.	.
2F 2B- 2c 2e	4.cc^< 4.ccc	.	.	.	.	.	.
.	8g 8gg	.	.	.	.	.	.
=164	=164	=164	=164	=164	=164	=164	=164
4F 4A 4c 4f	8.aL 8.cc 8.aa	.	2.r	.	.	.	.
.	16gJk 16b- 16gg	.	.	.	.	.	.
2F 2A 2c	2f 2a 2ff	.	.	.	.	.	.
=165	=165	=165	=165	=165	=165	=165	=165
4FF 4F	4c 4a 4cc	.	2.r	.	.	.	.
4F 4A 4c	4f 4ff	.	.	.	.	.	.
4F 4B- 4c 4e	4g 4gg	.	.	.	.	.	.
=166	=166	=166	=166	=166	=166	=166	=166
4F 4A 4c 4f	4a 4aa	.	2.r	.	.	.	.
2F 2A 2c 2f	4.cc^< 4.ccc	.	.	.	.	.	.
.	8a 8aa	.	.	.	.	.	.
=167	=167	=167	=167	=167	=167	=167	=167
4F 4B- 4c 4e	4g 4gg	.	2.r	.	.	.	.
2F 2B- 2c 2e	4.cc 4.ccc	.	.	.	.	.	.
.	8g 8gg	.	.	.	.	.	.
=168	=168	=168	=168	=168	=168	=168	=168
8F 8A 8c 8f	8a 8ff	.	2r	.	.	.	.
8r	8r	.	.	.	.	.	.
4FF 4F	4ff 4aa 4fff	ff	.	.	.	.	.
4r;	4r;	.	4r;	.	.	.	.
!!LO:PB:original
=169!|:	=169!|:	=169!|:	=169!|:	=169!|:	=169!|:	=169!|:	=169!|:
*k[]	*k[]	*	*k[]	*	*	*	*
*^	*^	*	*	*	*	*	*
8.CL 8.c	4ryy	8gL 8ee	4ryy	.	8ee	Gdy	Lecz	Tyl-	.
.	.	8gJ 8ee	.	.	8ee	prze-	tam	-ko	.
16CJk 16c	.	.	.	.	.	.	.	.	.
4c	2C	4.ee	4g	.	4.ee	-jeż-	da-	mo-	.
4c	.	.	4g#X	.	.	.	.	.	.
.	.	8dd	.	.	8dd	-dżać	-lej	-wy	.
*v	*v	*	*	*	*	*	*	*	*
*	*v	*v	*	*	*	*	*	*
=170	=170	=170	=170	=170	=170	=170	=170
8.CCL 8.C	(8bL 8dd	.	8dd	bę-	gród	na-	.
.	8aJ) 8cc	.	8cc	-dziesz	jest	-szej	.
16c\Jk	.	.	.	.	.	.	.
4c	4a 4cc	.	4cc	wo-	Bo-	dźwię-	.
4c	4gn 4b	.	4b	-łyń	-ny	-ki	.
=171	=171	=171	=171	=171	=171	=171	=171
8.CC\L 8.C\	8fL 8a	.	8a	zwy-	skąd	ja-	.
.	8fJ 8a	.	8a	-żaj	o-	-ko	.
16c\Jk	.	.	.	.	.	.	.
4c	((4.a 4.cc	.	4.cc	kę-	-świa-	daw-	.
4c	.	.	.	.	.	.	.
.	8f)) 8a	.	8a	-dy	-ty	-niej	.
=172	=172	=172	=172	=172	=172	=172	=172
8.CC\L 8.C\	(8fL 8a	.	8a	pły-	nie-	two-	.
.	8eJ) 8g	.	8g	-nie	-gdyś	-rzą	.
16c\Jk	.	.	.	.	.	.	.
(4.c	((4e 4g	.	4g	Ho-	plo-	wdzię-	.
.	4c)) 4e	.	8e	-ryń	-ny	-ki	.
8G)	.	.	8r	.	.	.	.
!!LO:LB:original
=173	=173	=173	=173	=173	=173	=173	=173
4GG	(8cL	.	8e	tam	w kraj	nie-	.
.	8BJ)	.	8d	we-	pły-	-wiast	.
4F 4G	4B	.	4d	-so-	-nę-	mi-	.
4D 4G 4B	4f	.	4a	-ła	-ły	-łych	.
=174	=174	=174	=174	=174	=174	=174	=174
4CC	(8fL	.	8a	o-	dziś	i	.
.	8eJ)	.	8g	-ko-	ru-	dzie-	.
4E 4G 4c	4e	.	4g	-li-	-i-	-we-	.
4E 4G 4c	4e	.	4g	-ca	-ną	-czek	.
=175	=175	=175	=175	=175	=175	=175	=175
4GG	(8eL	.	8g	jak	i	szcze-	.
.	8dJ)	.	8f	hu-	o-	-bio-	.
4F 4G 4B	4d	.	4f	-lasz-	-snu-	-tli-	.
4F 4G 4B	4d	.	4f	-cza	-ły	-wych	.
=176	=176	=176	=176	=176	=176	=176	=176
4CC	(8dL	.	8f	kra-	pa-	ich	.
.	8cJ)	.	8e	-sa-	-ję-	u-	.
4E 4G	4c	.	4e	-wi-	-czy-	-ste-	.
4E 4G	4c 4g	.	4e	-ca	-ną,	-czek	.
!!LO:LB:original
=177	=177	=177	=177	=177	=177	=177	=177
4GG	(8eL 8cc	.	8e	tam	dziś	nie-	.
.	8dJ) 8b	.	8d	we-	ru-	-wiast	.
!	!	!	!	!	!	!	!LO:DY:a
2G	((4d 4b	.	4d	-so-	-i-	mi-	<
.	4a/)) 4ff/	.	4a	-ła	-ną	-łych	[[
=178	=178	=178	=178	=178	=178	=178	=178
4CC	(8aL 8ff	.	8a	o-	dziś	i	.
.	8gJ) 8ee	.	8g	-ko-	ru-	dzie-	.
4E 4G 4c	((4.g/ 4.ee/	.	4g	-li-	-i-	-we-	.
4E 4G 4c	.	.	4g	-ca	-ną	-czek	.
.	8e)) 8cc	.	.	.	.	.	.
=179	=179	=179	=179	=179	=179	=179	=179
4GG	(8gL 8ee	.	8g	jak	i	szcze-	.
.	8f#XJ) 8dd#X	.	8f#X	hu-	o-	-bio-	.
4D 4G 4B	((4.fn 4.ddn	.	4.fn	-lasz-	-snu-	-tli-	.
4F 4G 4B	.	.	.	.	.	.	.
.	8d)) 8b	.	8d	-czą	-ty	-wych	.
=180	=180	=180	=180	=180	=180	=180	=180
*^	*	*	*	*	*	*	*
4C	4CC	(8f/L 8dd/	.	8d	kra-	pa-	ich	.
.	.	8g/J) 8ee/	.	8e	-sa-	-ję-	u-	.
(4B	2C 2G	((4f 4dd	.	4d	-wi-	-czy-	-ste-	.
4c)	.	4e)) 4cc	.	4c	-ca	-ną	-czek.	.
*v	*v	*	*	*	*	*	*	*
!!LO:LB:original
=181||	=181||	=181||	=181||	=181||	=181||	=181||	=181||
!	!	!	!LO:TX:B:a:t=Vivo.	!	!	!	!
4CC 4C	4G 4e 4g	ff	2.r	.	.	.	.
4E 4c	4e 4cc	.	.	.	.	.	.
4G 4d	4g 4dd	.	.	.	.	.	.
=182	=182	=182	=182	=182	=182	=182	=182
*	*^	*	*	*	*	*	*
4CC 4C	4ee	4cc	.	2.r	.	.	.	.
2E 2G 2c 2e	4.gg	2g	.	.	.	.	.	.
.	8ee	.	.	.	.	.	.	.
=183	=183	=183	=183	=183	=183	=183	=183	=183
4CC 4C	(8ggL	4g	.	2.r	.	.	.	.
.	8eeJ)	.	.	.	.	.	.	.
4F 4G 4B 4d	4ff	4g	.	.	.	.	.	.
4F 4G 4B 4d	4gg	4g	.	.	.	.	.	.
=184	=184	=184	=184	=184	=184	=184	=184	=184
4CC 4C	4ee	4g	.	2.r	.	.	.	.
4E 4G 4c 4e	4.gg	2g	.	.	.	.	.	.
4E 4G 4c 4e	.	.	.	.	.	.	.	.
.	8ee	.	.	.	.	.	.	.
=185	=185	=185	=185	=185	=185	=185	=185	=185
4CC 4C	(8ggL	4g	.	2.r	.	.	.	.
.	8eeJ)	.	.	.	.	.	.	.
4F 4G 4B 4d	4ff	4g	.	.	.	.	.	.
4F 4G 4B 4d	4gg	4g	.	.	.	.	.	.
=186	=186	=186	=186	=186	=186	=186	=186	=186
4CC 4C	4ee	4g	.	2.r	.	.	.	.
2E 2G 2c 2e	4.gg	2g	.	.	.	.	.	.
.	8ee	.	.	.	.	.	.	.
=187	=187	=187	=187	=187	=187	=187	=187	=187
4CC 4C	4dd	4g	.	2.r	.	.	.	.
2F 2G 2B 2d	4.gg	2g	.	.	.	.	.	.
.	8dd	.	.	.	.	.	.	.
=188	=188	=188	=188	=188	=188	=188	=188	=188
8CC 8C	8eeL	4g	.	2.r;	.	.	.	.
8r	8ddJ	.	.	.	.	.	.	.
2C;< 2G 2e	2cc;	2g	.	.	.	.	.	.
*	*v	*v	*	*	*	*	*	*
!!LO:PB:original
=189:|!	=189:|!	=189:|!	=189:|!	=189:|!	=189:|!	=189:|!	=189:|!
!	!	!	!LO:TX:B:a:t=Moderato.	!	!	!	!
(8g#X>L 8b>	(8eeL	f	2.r	.	.	.	.
8a>J 8cc>	8ffJ	.	.	.	.	.	.
2g#>) 2b>	2ee)	.	.	.	.	.	.
=190	=190	=190	=190	=190	=190	=190	=190
(8G#XL 8B	(8eL	p	2.r	.	.	.	.
8AJ 8c	8fJ	.	.	.	.	.	.
2G#) 2B	2e)	.	.	.	.	.	.
=191||	=191||	=191||	=191||	=191||	=191||	=191||	=191||
*	*^	*	*	*	*	*	*
4E 4G#X	8.fL	4d	p	8.f	A	.	.	.
.	16eJk	.	.	16e	Po-	.	.	.
2E 2G#	((4.d 4.b	2ryy	.	4.b/	-do-	.	.	.
.	8c)) 8a	.	.	8a	-leż	.	.	.
*	*v	*v	*	*	*	*	*	*
=192	=192	=192	=192	=192	=192	=192	=192
8EE 8E	8B 8g#X	.	8g#X	to	.	.	.
8r	8r	.	8f	zie-	.	.	.
2EE 2E	2B 2g#	.	4e	-mi-	.	.	.
.	.	.	8d	-ca	.	.	.
.	.	.	8r	.	.	.	.
=193	=193	=193	=193	=193	=193	=193	=193
*	*^	*	*	*	*	*	*
8EE 8E	8B 8g#X	4ryy	.	8.B	nie-	.	.	.
8r	8r	.	.	.	.	.	.	.
.	.	.	.	16f	-gdyś	.	.	.
2EE 2E	2g#	(4B	.	4.e	Ba-	.	.	.
.	.	4d)	.	.	.	.	.	.
.	.	.	.	8B	-szów	.	.	.
=194	=194	=194	=194	=194	=194	=194	=194	=194
*^	*	*	*	*	*	*	*	*
8AAA 8AA	4ryy	4a	8dL	.	8d	hoł-	.	.	.
8r	.	.	8c#XJ	.	8c#X	-do-	.	.	.
(4A	2AA	2a	2cn	.	4cn	-wni-	.	.	.
4C)	.	.	.	.	8e	-cą	.	.	.
.	.	.	.	.	8r	.	.	.	.
*v	*v	*	*	*	*	*	*	*	*
*	*v	*v	*	*	*	*	*	*
!!LO:LB:original
=195	=195	=195	=195	=195	=195	=195	=195
(<2.GGG#X (<2.GG#X	4r	.	8.f	Bóg	.	.	.
.	.	.	16e	na	.	.	.
.	2E<^> 2B 2e	.	4.ee	sza-	.	.	.
.	.	.	8dd	-li	.	.	.
=196	=196	=196	=196	=196	=196	=196	=196
4AAA) 4AA)	8.r	.	8cc	łzy	.	.	.
.	.	.	8b	jej	.	.	.
.	16A 16c 16e	.	.	.	.	.	.
4r	4A 4c 4e	.	4b	zwa-	.	.	.
4AA	4A 4c 4f#X	.	4a	-żył	.	.	.
=197	=197	=197	=197	=197	=197	=197	=197
*	*^	*	*	*	*	*	*
2.BB 2.G	8gL	4B	.	8g	za	.	.	.
.	8aJ	.	.	8a	to	.	.	.
.	(4.g	4e	.	4g	hoj-	.	.	.
.	.	4d	.	4g	-nie	.	.	.
.	8fn)	.	.	.	.	.	.	.
=198	=198	=198	=198	=198	=198	=198	=198	=198
[<4C [>4G	8eL	[4c	.	8g	też	.	.	.
.	8fJ	.	.	8a	ob-	.	.	.
8C] 8G]	8e	8c]	.	4g	-da-	.	.	.
8r	8r	8ryy	.	.	.	.	.	.
4r	4e	4ryy	.	4g	-rzył	.	.	.
*	*v	*v	*	*	*	*	*	*
=199	=199	=199	=199	=199	=199	=199	=199
*^	*	*	*	*	*	*	*
4EE	4ryy	(8ffL	.	8f	żyz-	.	.	.
.	.	8eeJ)	.	8e	-na	.	.	.
(4.d	4G#X	(4.bb	.	4.b/	zie-	.	.	.
.	4E	.	.	.	.	.	.	.
8c)	.	8aa)	.	8a	-mia	.	.	.
=200	=200	=200	=200	=200	=200	=200	=200	=200
*	*	*^	*	*	*	*	*	*
8B	8E	8gg#XL	4ryy	.	8g#X	tam	.	.	.
8r	8ryy	8ffJ	.	.	8f	ob-	.	.	.
2B	2E	4ee	2g#X	.	4e	-fi-	.	.	.
.	.	4dd	.	.	4d	-tą	.	.	.
*	*	*v	*v	*	*	*	*	*	*
!!LO:LB:original
=201	=201	=201	=201	=201	=201	=201	=201	=201
4EE	4ryy	(8bL	.	8.B	stru-	.	.	.
.	.	8ffJ)	.	.	.	.	.	.
.	.	.	.	16f	-mie-	.	.	.
(4.B	2E	(4.g#X 4.ee	.	4.e	-nia-	.	.	.
8d)	.	8b)	.	8B	-mi	.	.	.
*v	*v	*	*	*	*	*	*	*
=202	=202	=202	=202	=202	=202	=202	=202
4AA	(8ddL	.	8d	krwi	.	.	.
.	8cc#XJ)	.	8c#X	ob-	.	.	.
2E 2c	4ccn	.	4cn	-my-	.	.	.
.	4ee	.	8e	-ta	.	.	.
.	.	.	8r	.	.	.	.
=203	=203	=203	=203	=203	=203	=203	=203
*^	*	*	*	*	*	*	*
4r	2.GG#X	(8ffL	.	8f	i	.	.	.
.	.	8eeJ)	.	8e	na-	.	.	.
2E^ 2B 2e	.	4.ee 4.eee	.	4.ee	-tu-	.	.	.
.	.	8ddd	.	8ee	-ry	.	.	.
*v	*v	*	*	*	*	*	*	*
=204	=204	=204	=204	=204	=204	=204	=204
8.AAL	8eeL 8ccc	.	8cc	o-	.	.	.
.	8bbJ	.	8b	-by-	.	.	.
16AJk 16c 16e	.	.	.	.	.	.	.
4A 4c 4e	4ee 4bb	.	4b	-cza-	.	.	.
4A 4c 4f#X	4ee 4aa	.	4a	-jem	.	.	.
=205	=205	=205	=205	=205	=205	=205	=205
4BB	8eeL 8gg	.	8g	lud	.	.	.
.	8dd#XJ 8ff#X	.	8f#X	jest	.	.	.
4B 4f#X	4.b 4.dd# 4.bb	.	4.b	pię-	.	.	.
(4BB	.	.	.	.	.	.	.
.	8a 8dd# 8ff#	.	8f#	-kny	.	.	.
=206	=206	=206	=206	=206	=206	=206	=206
4EE)	(8.ccL 8.ff#X 8.aa	.	8.a	ca-	.	.	.
.	16bJk) 16ee 16gg	.	16g	-łym	.	.	.
4r	4g 4b 4ee	.	4e	kra-	.	.	.
4E	4r	.	4e	-jem	.	.	.
!!LO:LB:original
=207||	=207||	=207||	=207||	=207||	=207||	=207||	=207||
!	!	!	!LO:TX:B:a:t=Poco piu animato.	!	!	!	!
8EE	8e: 8g#X 8b 8ee	.	8e	Pię-	.	.	.
8r	8r	.	8b	-kne	.	.	.
4E 4G#X	4d 4e	.	4.cc	no-	.	.	.
4E 4G#	4d 4e	.	.	.	.	.	.
.	.	.	8b	-ce	.	.	.
=208	=208	=208	=208	=208	=208	=208	=208
8EE	8e: 8a 8cc 8ee	.	8a	tam	.	.	.
8r	8r	.	8g#X	gwiaź-	.	.	.
4E 4A	4c 4e	.	4a	-dzis-	.	.	.
4E 4A	4c 4e	.	4e	-te	.	.	.
=209	=209	=209	=209	=209	=209	=209	=209
8EE	8e 8g#X 8b 8ee	.	8e	tam	.	.	.
8r	8r	.	8b	są	.	.	.
4E 4G#X	4d 4e	.	4.cc	wo-	.	.	.
4E 4G#	4d 4e	.	.	.	.	.	.
.	.	.	8b	-dy	.	.	.
=210	=210	=210	=210	=210	=210	=210	=210
8EE	8e 8a 8cc 8ee	.	8a	przez-	.	.	.
8r	8r	.	8g#X	-ro-	.	.	.
4E 4A	4c 4e	.	4a	-czy-	.	.	.
4E 4A	4c 4e	.	4e	-ste	.	.	.
=211	=211	=211	=211	=211	=211	=211	=211
(<2.GGG#X (<2.GG#X	4r	.	8f	a	.	.	.
.	.	.	8e	dziew-	.	.	.
.	2E< 2B 2e^>	.	4.ee	-czę-	.	.	.
.	.	.	8dd	-ta	.	.	.
=212	=212	=212	=212	=212	=212	=212	=212
4AAA) 4AA)	8.r	.	8cc	jak	.	.	.
.	.	.	8b	to-	.	.	.
.	16A 16c 16e	.	.	.	.	.	.
4r	4A 4c 4e	.	4b	-pol-	.	.	.
4AA 4E	4c 4f#X	.	4a	-ki	.	.	.
!!LO:PB:original
=213	=213	=213	=213	=213	=213	=213	=213
*^	*^	*	*	*	*	*	*
8EL	4BB	8gL	4B	.	8g	zmys-	.	.	.
8D#XJ	.	8f#XJ	.	.	8f#X	-łem	.	.	.
(4.F#X	2BB	(4.b	2d#X	.	4.b/	ser-	.	.	.
8A)	.	8f#)	.	.	8f#	-cem	.	.	.
*v	*v	*	*	*	*	*	*	*	*
=214	=214	=214	=214	=214	=214	=214	=214	=214
.	(8qa/	.	.	(8qa/	.	.	.	.
4EE	8.BL) 8.e 8.g	2ryy	.	8.g)	szcze-	.	.	.
.	16AJk 16f#X	.	.	16f#X	-re	.	.	.
4r	4G 4e	.	.	4e	pol-	.	.	.
4E	4e	4e	.	4e	-ki.	.	.	.
*	*v	*v	*	*	*	*	*	*
=215	=215	=215	=215	=215	=215	=215	=215
4EE	(8eeL	.	2.r	.	.	.	.
.	8bbJ)	.	.	.	.	.	.
4E 4G#X 4d	4.cc 4.ee 4.ccc	.	.	.	.	.	.
4E 4G# 4d	.	.	.	.	.	.	.
.	8bb	.	.	.	.	.	.
=216	=216	=216	=216	=216	=216	=216	=216
4AAA 4AA	8aaL	.	2.r	.	.	.	.
.	8gg#XJ	.	.	.	.	.	.
4E 4A 4c	4a 4ee 4aa	.	.	.	.	.	.
4E 4A 4c	4e\ 4ee\	.	.	.	.	.	.
=217	=217	=217	=217	=217	=217	=217	=217
4EE	8eL 8ee	.	2.r	.	.	.	.
.	8bJ 8bb	.	.	.	.	.	.
4E 4G#X 4d	4.cc 4.ee 4.ccc	.	.	.	.	.	.
4E 4G# 4d	.	.	.	.	.	.	.
.	8b 8bb	.	.	.	.	.	.
=218	=218	=218	=218	=218	=218	=218	=218
4AAA 4AA	8aL 8aa	.	2.r	.	.	.	.
.	8g#XJ 8gg#X	.	.	.	.	.	.
4E 4A 4c	4a 4ee 4aa	.	.	.	.	.	.
4E 4A 4c	4ee	.	.	.	.	.	.
=219	=219	=219	=219	=219	=219	=219	=219
*	*^	*	*	*	*	*	*
8EE	8ffL	8g#X 8dd	.	2.r	.	.	.	.
8r	8eeJ	8ryy	.	.	.	.	.	.
2G#X 2B 2e	(4.ee 4.eee	2ryy	sfz	.	.	.	.	.
.	8ddd)	.	.	.	.	.	.	.
*	*v	*v	*	*	*	*	*	*
=220	=220	=220	=220	=220	=220	=220	=220
!	!LO:TUP:a	!	!	!	!	!	!
8AL 8c 8e	12eeL 12ccc	.	2.r	.	.	.	.
.	12ddd	.	.	.	.	.	.
16r	.	.	.	.	.	.	.
.	12aaJ 12ccc	.	.	.	.	.	.
*clefG2	*	*	*	*	*	*	*
16eJk 16a	.	.	.	.	.	.	.
4e 4g	(4.ee 4.bb	.	.	.	.	.	.
4A 4c 4f#X	.	.	.	.	.	.	.
.	8aa)	.	.	.	.	.	.
!!LO:LB:original
=221	=221	=221	=221	=221	=221	=221	=221
*^	*	*	*	*	*	*	*
(8eL 8g	4B	8eeL 8gg	.	2.r	.	.	.	.
8d#XJ) 8f#X	.	8dd#XJ 8ff#X	.	.	.	.	.	.
!LO:TX:a:t=rall.	!	!	!	!	!	!	!	!
4.b	4B 4f#	4.dd# 4.bb	.	.	.	.	.	.
.	4ryy	.	.	.	.	.	.	.
8a	.	8ff#	.	.	.	.	.	.
=222	=222	=222	=222	=222	=222	=222	=222	=222
(8gL	4B	8eeL 8gg	.	2r	.	.	.	.
8f#XJ)	.	8dd#XJ 8ff#X	.	.	.	.	.	.
2f#;	2B	2dd# 2bb;	.	.	.	.	.	.
.	.	.	.	4r;	.	.	.	.
*v	*v	*	*	*	*	*	*	*
!!LO:LB:original
*clefF4	*	*	*	*	*	*	*
=223||	=223||	=223||	=223||	=223||	=223||	=223||	=223||
*k[f#]	*k[f#]	*	*k[f#]	*	*	*	*
*tremolo	*tremolo	*	*	*	*	*	*
!	!	!	!LO:TX:a:t=Andante.	!	!	!	!
64EELLLL 64BB	64E<LLLL 64G< 64e	p	8.e	Sko-	.	.	.
64EE 64BB	64E 64G 64e	.	.	.	.	.	.
64EE 64BB	64E 64G 64e	.	.	.	.	.	.
64EE 64BB	64E 64G 64e	.	.	.	.	.	.
64EE 64BB	64E 64G 64e	.	.	.	.	.	.
64EE 64BB	64E 64G 64e	.	.	.	.	.	.
64EE 64BB	64E 64G 64e	.	.	.	.	.	.
64EE 64BB	64E 64G 64e	.	.	.	.	.	.
64EE 64BB	64E 64G 64e	.	.	.	.	.	.
64EE 64BB	64E 64G 64e	.	.	.	.	.	.
64EE 64BB	64E 64G 64e	.	.	.	.	.	.
64EE 64BB	64E 64G 64e	.	.	.	.	.	.
64EE 64BB	64E 64G 64e	.	16g	-ro	.	.	.
64EE 64BB	64E 64G 64e	.	.	.	.	.	.
64EE 64BB	64E 64G 64e	.	.	.	.	.	.
64EE 64BB	64E 64G 64e	.	.	.	.	.	.
64EE 64BB	64E 64G 64e	.	4.b	uj-	.	.	.
64EE 64BB	64E 64G 64e	.	.	.	.	.	.
64EE 64BB	64E 64G 64e	.	.	.	.	.	.
64EE 64BB	64E 64G 64e	.	.	.	.	.	.
64EE 64BB	64E 64G 64e	.	.	.	.	.	.
64EE 64BB	64E 64G 64e	.	.	.	.	.	.
64EE 64BB	64E 64G 64e	.	.	.	.	.	.
64EE 64BB	64E 64G 64e	.	.	.	.	.	.
64EE 64BB	64E 64G 64e	.	.	.	.	.	.
64EE 64BB	64E 64G 64e	.	.	.	.	.	.
64EE 64BB	64E 64G 64e	.	.	.	.	.	.
64EE 64BB	64E 64G 64e	.	.	.	.	.	.
64EE 64BB	64E 64G 64e	.	.	.	.	.	.
64EE 64BB	64E 64G 64e	.	.	.	.	.	.
64EE 64BB	64E 64G 64e	.	.	.	.	.	.
64EE 64BB	64E 64G 64e	.	.	.	.	.	.
64EE 64BB	64E 64G 64e	.	.	.	.	.	.
64EE 64BB	64E 64G 64e	.	.	.	.	.	.
64EE 64BB	64E 64G 64e	.	.	.	.	.	.
64EE 64BB	64E 64G 64e	.	.	.	.	.	.
64EE 64BB	64E 64G 64e	.	.	.	.	.	.
64EE 64BB	64E 64G 64e	.	.	.	.	.	.
64EE 64BB	64E 64G 64e	.	.	.	.	.	.
64EE 64BB	64E 64G 64e	.	.	.	.	.	.
64EE 64BB	64E 64G 64e	.	8b	-rzysz	.	.	.
64EE 64BB	64E 64G 64e	.	.	.	.	.	.
64EE 64BB	64E 64G 64e	.	.	.	.	.	.
64EE 64BB	64E 64G 64e	.	.	.	.	.	.
64EE 64BB	64E 64G 64e	.	.	.	.	.	.
64EE 64BB	64E 64G 64e	.	.	.	.	.	.
64EE 64BB	64E 64G 64e	.	.	.	.	.	.
64EEJJJJ 64BB	64EJJJJ 64G 64e	.	.	.	.	.	.
!!LO:LB:original
*	*clefF4	*	*	*	*	*	*
=224	=224	=224	=224	=224	=224	=224	=224
64EELLLL 64BB	64ELLLL 64G 64e	.	8.cc	step	.	.	.
64EE 64BB	64E 64G 64e	.	.	.	.	.	.
64EE 64BB	64E 64G 64e	.	.	.	.	.	.
64EE 64BB	64E 64G 64e	.	.	.	.	.	.
64EE 64BB	64E 64G 64e	.	.	.	.	.	.
64EE 64BB	64E 64G 64e	.	.	.	.	.	.
64EE 64BB	64E 64G 64e	.	.	.	.	.	.
64EE 64BB	64E 64G 64e	.	.	.	.	.	.
64EE 64BB	64E 64G 64e	.	.	.	.	.	.
64EE 64BB	64E 64G 64e	.	.	.	.	.	.
64EE 64BB	64E 64G 64e	.	.	.	.	.	.
64EE 64BB	64E 64G 64e	.	.	.	.	.	.
64EE 64BB	64E 64G 64e	.	16b	do	.	.	.
64EE 64BB	64E 64G 64e	.	.	.	.	.	.
64EE 64BB	64E 64G 64e	.	.	.	.	.	.
64EE 64BB	64E 64G 64e	.	.	.	.	.	.
64EE 64BB	64E 64G 64e	.	4g	ko-	.	.	.
64EE 64BB	64E 64G 64e	.	.	.	.	.	.
64EE 64BB	64E 64G 64e	.	.	.	.	.	.
64EE 64BB	64E 64G 64e	.	.	.	.	.	.
64EE 64BB	64E 64G 64e	.	.	.	.	.	.
64EE 64BB	64E 64G 64e	.	.	.	.	.	.
64EE 64BB	64E 64G 64e	.	.	.	.	.	.
64EE 64BB	64E 64G 64e	.	.	.	.	.	.
64EE 64BB	64E 64G 64e	.	.	.	.	.	.
64EE 64BB	64E 64G 64e	.	.	.	.	.	.
64EE 64BB	64E 64G 64e	.	.	.	.	.	.
64EE 64BB	64E 64G 64e	.	.	.	.	.	.
64EE 64BB	64E 64G 64e	.	.	.	.	.	.
64EE 64BB	64E 64G 64e	.	.	.	.	.	.
64EE 64BB	64E 64G 64e	.	.	.	.	.	.
64EE 64BB	64E 64G 64e	.	.	.	.	.	.
64EE 64BB	64E 64G 64e	.	4e	-ła	.	.	.
64EE 64BB	64E 64G 64e	.	.	.	.	.	.
64EE 64BB	64E 64G 64e	.	.	.	.	.	.
64EE 64BB	64E 64G 64e	.	.	.	.	.	.
64EE 64BB	64E 64G 64e	.	.	.	.	.	.
64EE 64BB	64E 64G 64e	.	.	.	.	.	.
64EE 64BB	64E 64G 64e	.	.	.	.	.	.
64EE 64BB	64E 64G 64e	.	.	.	.	.	.
64EE 64BB	64E 64G 64e	.	.	.	.	.	.
64EE 64BB	64E 64G 64e	.	.	.	.	.	.
64EE 64BB	64E 64G 64e	.	.	.	.	.	.
64EE 64BB	64E 64G 64e	.	.	.	.	.	.
64EE 64BB	64E 64G 64e	.	.	.	.	.	.
64EE 64BB	64E 64G 64e	.	.	.	.	.	.
64EE 64BB	64E 64G 64e	.	.	.	.	.	.
64EEJJJJ 64BB	64EJJJJ 64G 64e	.	.	.	.	.	.
!!LO:LB:original
=225	=225	=225	=225	=225	=225	=225	=225
64BBBLLLL 64BB	64F#LLLL 64A 64d#X	.	8.d#X	na-	.	.	.
64BBB 64BB	64F# 64A 64d#	.	.	.	.	.	.
64BBB 64BB	64F# 64A 64d#	.	.	.	.	.	.
64BBB 64BB	64F# 64A 64d#	.	.	.	.	.	.
64BBB 64BB	64F# 64A 64d#	.	.	.	.	.	.
64BBB 64BB	64F# 64A 64d#	.	.	.	.	.	.
64BBB 64BB	64F# 64A 64d#	.	.	.	.	.	.
64BBB 64BB	64F# 64A 64d#	.	.	.	.	.	.
64BBB 64BB	64F# 64A 64d#	.	.	.	.	.	.
64BBB 64BB	64F# 64A 64d#	.	.	.	.	.	.
64BBB 64BB	64F# 64A 64d#	.	.	.	.	.	.
64BBB 64BB	64F# 64A 64d#	.	.	.	.	.	.
64BBB 64BB	64F# 64A 64d#	.	16f#	-je-	.	.	.
64BBB 64BB	64F# 64A 64d#	.	.	.	.	.	.
64BBB 64BB	64F# 64A 64d#	.	.	.	.	.	.
64BBB 64BB	64F# 64A 64d#	.	.	.	.	.	.
64BBB 64BB	64F# 64A 64d#	.	4.a	-żo-	.	.	.
64BBB 64BB	64F# 64A 64d#	.	.	.	.	.	.
64BBB 64BB	64F# 64A 64d#	.	.	.	.	.	.
64BBB 64BB	64F# 64A 64d#	.	.	.	.	.	.
64BBB 64BB	64F# 64A 64d#	.	.	.	.	.	.
64BBB 64BB	64F# 64A 64d#	.	.	.	.	.	.
64BBB 64BB	64F# 64A 64d#	.	.	.	.	.	.
64BBB 64BB	64F# 64A 64d#	.	.	.	.	.	.
64BBB 64BB	64F# 64A 64d#	.	.	.	.	.	.
64BBB 64BB	64F# 64A 64d#	.	.	.	.	.	.
64BBB 64BB	64F# 64A 64d#	.	.	.	.	.	.
64BBB 64BB	64F# 64A 64d#	.	.	.	.	.	.
64BBB 64BB	64F# 64A 64d#	.	.	.	.	.	.
64BBB 64BB	64F# 64A 64d#	.	.	.	.	.	.
64BBB 64BB	64F# 64A 64d#	.	.	.	.	.	.
64BBB 64BB	64F# 64A 64d#	.	.	.	.	.	.
64BBB 64BB	64F# 64A 64d#	.	.	.	.	.	.
64BBB 64BB	64F# 64A 64d#	.	.	.	.	.	.
64BBB 64BB	64F# 64A 64d#	.	.	.	.	.	.
64BBB 64BB	64F# 64A 64d#	.	.	.	.	.	.
64BBB 64BB	64F# 64A 64d#	.	.	.	.	.	.
64BBB 64BB	64F# 64A 64d#	.	.	.	.	.	.
64BBB 64BB	64F# 64A 64d#	.	.	.	.	.	.
64BBB 64BB	64F# 64A 64d#	.	.	.	.	.	.
64BBB 64BB	64F# 64A 64d#	.	8a	-ny	.	.	.
64BBB 64BB	64F# 64A 64d#	.	.	.	.	.	.
64BBB 64BB	64F# 64A 64d#	.	.	.	.	.	.
64BBB 64BB	64F# 64A 64d#	.	.	.	.	.	.
64BBB 64BB	64F# 64A 64d#	.	.	.	.	.	.
64BBB 64BB	64F# 64A 64d#	.	.	.	.	.	.
64BBB 64BB	64F# 64A 64d#	.	.	.	.	.	.
64BBBJJJJ 64BB	64F#JJJJ 64A 64d#	.	.	.	.	.	.
!!LO:LB:original
=226	=226	=226	=226	=226	=226	=226	=226
64BBBLLLL 64BB	64F#LLLL 64A 64d#X	.	8.b/	mo-	.	.	.
64BBB 64BB	64F# 64A 64d#	.	.	.	.	.	.
64BBB 64BB	64F# 64A 64d#	.	.	.	.	.	.
64BBB 64BB	64F# 64A 64d#	.	.	.	.	.	.
64BBB 64BB	64F# 64A 64d#	.	.	.	.	.	.
64BBB 64BB	64F# 64A 64d#	.	.	.	.	.	.
64BBB 64BB	64F# 64A 64d#	.	.	.	.	.	.
64BBB 64BB	64F# 64A 64d#	.	.	.	.	.	.
64BBB 64BB	64F# 64A 64d#	.	.	.	.	.	.
64BBB 64BB	64F# 64A 64d#	.	.	.	.	.	.
64BBB 64BB	64F# 64A 64d#	.	.	.	.	.	.
64BBB 64BB	64F# 64A 64d#	.	.	.	.	.	.
64BBB 64BB	64F# 64A 64d#	.	16a	-gi-	.	.	.
64BBB 64BB	64F# 64A 64d#	.	.	.	.	.	.
64BBB 64BB	64F# 64A 64d#	.	.	.	.	.	.
64BBB 64BB	64F# 64A 64d#	.	.	.	.	.	.
64BBB 64BB	64F# 64A 64d#	.	8f#	-ła-	.	.	.
64BBB 64BB	64F# 64A 64d#	.	.	.	.	.	.
64BBB 64BB	64F# 64A 64d#	.	.	.	.	.	.
64BBB 64BB	64F# 64A 64d#	.	.	.	.	.	.
64BBB 64BB	64F# 64A 64d#	.	.	.	.	.	.
64BBB 64BB	64F# 64A 64d#	.	.	.	.	.	.
64BBB 64BB	64F# 64A 64d#	.	.	.	.	.	.
64BBB 64BB	64F# 64A 64d#	.	.	.	.	.	.
64BBB 64BB	64F# 64A 64d#	.	4.d#X	-mi,	.	.	.
64BBB 64BB	64F# 64A 64d#	.	.	.	.	.	.
64BBB 64BB	64F# 64A 64d#	.	.	.	.	.	.
64BBB 64BB	64F# 64A 64d#	.	.	.	.	.	.
64BBB 64BB	64F# 64A 64d#	.	.	.	.	.	.
64BBB 64BB	64F# 64A 64d#	.	.	.	.	.	.
64BBB 64BB	64F# 64A 64d#	.	.	.	.	.	.
64BBB 64BB	64F# 64A 64d#	.	.	.	.	.	.
64BBB 64BB	64F# 64A 64d#	.	.	.	.	.	.
64BBB 64BB	64F# 64A 64d#	.	.	.	.	.	.
64BBB 64BB	64F# 64A 64d#	.	.	.	.	.	.
64BBB 64BB	64F# 64A 64d#	.	.	.	.	.	.
64BBB 64BB	64F# 64A 64d#	.	.	.	.	.	.
64BBB 64BB	64F# 64A 64d#	.	.	.	.	.	.
64BBB 64BB	64F# 64A 64d#	.	.	.	.	.	.
64BBB 64BB	64F# 64A 64d#	.	.	.	.	.	.
64BBB 64BB	64F# 64A 64d#	.	.	.	.	.	.
64BBB 64BB	64F# 64A 64d#	.	.	.	.	.	.
64BBB 64BB	64F# 64A 64d#	.	.	.	.	.	.
64BBB 64BB	64F# 64A 64d#	.	.	.	.	.	.
64BBB 64BB	64F# 64A 64d#	.	.	.	.	.	.
64BBB 64BB	64F# 64A 64d#	.	.	.	.	.	.
64BBB 64BB	64F# 64A 64d#	.	.	.	.	.	.
64BBBJJJJ 64BB	64F#JJJJ 64A 64d#	.	.	.	.	.	.
!!LO:PB:original
=227	=227	=227	=227	=227	=227	=227	=227
64EELLLL 64BB	64ELLLL 64G 64e	.	8.e	to	.	.	.
64EE 64BB	64E 64G 64e	.	.	.	.	.	.
64EE 64BB	64E 64G 64e	.	.	.	.	.	.
64EE 64BB	64E 64G 64e	.	.	.	.	.	.
64EE 64BB	64E 64G 64e	.	.	.	.	.	.
64EE 64BB	64E 64G 64e	.	.	.	.	.	.
64EE 64BB	64E 64G 64e	.	.	.	.	.	.
64EE 64BB	64E 64G 64e	.	.	.	.	.	.
64EE 64BB	64E 64G 64e	.	.	.	.	.	.
64EE 64BB	64E 64G 64e	.	.	.	.	.	.
64EE 64BB	64E 64G 64e	.	.	.	.	.	.
64EE 64BB	64E 64G 64e	.	.	.	.	.	.
64EE 64BB	64E 64G 64e	.	16g	kra-	.	.	.
64EE 64BB	64E 64G 64e	.	.	.	.	.	.
64EE 64BB	64E 64G 64e	.	.	.	.	.	.
64EE 64BB	64E 64G 64e	.	.	.	.	.	.
64EE 64BB	64E 64G 64e	.	4.b	-i-	.	.	.
64EE 64BB	64E 64G 64e	.	.	.	.	.	.
64EE 64BB	64E 64G 64e	.	.	.	.	.	.
64EE 64BB	64E 64G 64e	.	.	.	.	.	.
64EE 64BB	64E 64G 64e	.	.	.	.	.	.
64EE 64BB	64E 64G 64e	.	.	.	.	.	.
64EE 64BB	64E 64G 64e	.	.	.	.	.	.
64EE 64BB	64E 64G 64e	.	.	.	.	.	.
64EE 64BB	64E 64G 64e	.	.	.	.	.	.
64EE 64BB	64E 64G 64e	.	.	.	.	.	.
64EE 64BB	64E 64G 64e	.	.	.	.	.	.
64EE 64BB	64E 64G 64e	.	.	.	.	.	.
64EE 64BB	64E 64G 64e	.	.	.	.	.	.
64EE 64BB	64E 64G 64e	.	.	.	.	.	.
64EE 64BB	64E 64G 64e	.	.	.	.	.	.
64EE 64BB	64E 64G 64e	.	.	.	.	.	.
64EE 64BB	64E 64G 64e	.	.	.	.	.	.
64EE 64BB	64E 64G 64e	.	.	.	.	.	.
64EE 64BB	64E 64G 64e	.	.	.	.	.	.
64EE 64BB	64E 64G 64e	.	.	.	.	.	.
64EE 64BB	64E 64G 64e	.	.	.	.	.	.
64EE 64BB	64E 64G 64e	.	.	.	.	.	.
64EE 64BB	64E 64G 64e	.	.	.	.	.	.
64EE 64BB	64E 64G 64e	.	.	.	.	.	.
64EE 64BB	64E 64G 64e	.	8b	-na	.	.	.
64EE 64BB	64E 64G 64e	.	.	.	.	.	.
64EE 64BB	64E 64G 64e	.	.	.	.	.	.
64EE 64BB	64E 64G 64e	.	.	.	.	.	.
64EE 64BB	64E 64G 64e	.	.	.	.	.	.
64EE 64BB	64E 64G 64e	.	.	.	.	.	.
64EE 64BB	64E 64G 64e	.	.	.	.	.	.
64EEJJJJ 64BB	64EJJJJ 64G 64e	.	.	.	.	.	.
!!LO:LB:original
=228	=228	=228	=228	=228	=228	=228	=228
64EELLLL 64BB	64ELLLL 64G 64e	.	8.cc	ar-	.	.	.
64EE 64BB	64E 64G 64e	.	.	.	.	.	.
64EE 64BB	64E 64G 64e	.	.	.	.	.	.
64EE 64BB	64E 64G 64e	.	.	.	.	.	.
64EE 64BB	64E 64G 64e	.	.	.	.	.	.
64EE 64BB	64E 64G 64e	.	.	.	.	.	.
64EE 64BB	64E 64G 64e	.	.	.	.	.	.
64EE 64BB	64E 64G 64e	.	.	.	.	.	.
64EE 64BB	64E 64G 64e	.	.	.	.	.	.
64EE 64BB	64E 64G 64e	.	.	.	.	.	.
64EE 64BB	64E 64G 64e	.	.	.	.	.	.
64EE 64BB	64E 64G 64e	.	.	.	.	.	.
64EE 64BB	64E 64G 64e	.	16b	-cha-	.	.	.
64EE 64BB	64E 64G 64e	.	.	.	.	.	.
64EE 64BB	64E 64G 64e	.	.	.	.	.	.
64EE 64BB	64E 64G 64e	.	.	.	.	.	.
64EE 64BB	64E 64G 64e	.	4g	-nio-	.	.	.
64EE 64BB	64E 64G 64e	.	.	.	.	.	.
64EE 64BB	64E 64G 64e	.	.	.	.	.	.
64EE 64BB	64E 64G 64e	.	.	.	.	.	.
64EE 64BB	64E 64G 64e	.	.	.	.	.	.
64EE 64BB	64E 64G 64e	.	.	.	.	.	.
64EE 64BB	64E 64G 64e	.	.	.	.	.	.
64EE 64BB	64E 64G 64e	.	.	.	.	.	.
64EE 64BB	64E 64G 64e	.	.	.	.	.	.
64EE 64BB	64E 64G 64e	.	.	.	.	.	.
64EE 64BB	64E 64G 64e	.	.	.	.	.	.
64EE 64BB	64E 64G 64e	.	.	.	.	.	.
64EE 64BB	64E 64G 64e	.	.	.	.	.	.
64EE 64BB	64E 64G 64e	.	.	.	.	.	.
64EE 64BB	64E 64G 64e	.	.	.	.	.	.
64EE 64BB	64E 64G 64e	.	.	.	.	.	.
64EE 64BB	64E 64G 64e	.	4e	-ła	.	.	.
64EE 64BB	64E 64G 64e	.	.	.	.	.	.
64EE 64BB	64E 64G 64e	.	.	.	.	.	.
64EE 64BB	64E 64G 64e	.	.	.	.	.	.
64EE 64BB	64E 64G 64e	.	.	.	.	.	.
64EE 64BB	64E 64G 64e	.	.	.	.	.	.
64EE 64BB	64E 64G 64e	.	.	.	.	.	.
64EE 64BB	64E 64G 64e	.	.	.	.	.	.
64EE 64BB	64E 64G 64e	.	.	.	.	.	.
64EE 64BB	64E 64G 64e	.	.	.	.	.	.
64EE 64BB	64E 64G 64e	.	.	.	.	.	.
64EE 64BB	64E 64G 64e	.	.	.	.	.	.
64EE 64BB	64E 64G 64e	.	.	.	.	.	.
64EE 64BB	64E 64G 64e	.	.	.	.	.	.
64EE 64BB	64E 64G 64e	.	.	.	.	.	.
64EEJJJJ 64BB	64EJJJJ 64G 64e	.	.	.	.	.	.
*Xtremolo	*	*	*	*	*	*	*
!!LO:LB:original
=229	=229	=229	=229	=229	=229	=229	=229
8BBB 8BB	64F#LLLL 64A 64d#X	.	8.d#X	u-	.	.	.
.	64F# 64A 64d#	.	.	.	.	.	.
.	64F# 64A 64d#	.	.	.	.	.	.
.	64F# 64A 64d#	.	.	.	.	.	.
.	64F# 64A 64d#	.	.	.	.	.	.
.	64F# 64A 64d#	.	.	.	.	.	.
.	64F# 64A 64d#	.	.	.	.	.	.
.	64F# 64A 64d#	.	.	.	.	.	.
8r	64F# 64A 64d#	.	.	.	.	.	.
.	64F# 64A 64d#	.	.	.	.	.	.
.	64F# 64A 64d#	.	.	.	.	.	.
.	64F# 64A 64d#	.	.	.	.	.	.
.	64F# 64A 64d#	.	16cc	-kra-	.	.	.
.	64F# 64A 64d#	.	.	.	.	.	.
.	64F# 64A 64d#	.	.	.	.	.	.
.	64F# 64A 64d#	.	.	.	.	.	.
4FF#	64F# 64A 64d#	.	4.b	-i-	.	.	.
.	64F# 64A 64d#	.	.	.	.	.	.
.	64F# 64A 64d#	.	.	.	.	.	.
.	64F# 64A 64d#	.	.	.	.	.	.
.	64F# 64A 64d#	.	.	.	.	.	.
.	64F# 64A 64d#	.	.	.	.	.	.
.	64F# 64A 64d#	.	.	.	.	.	.
.	64F# 64A 64d#	.	.	.	.	.	.
.	64F# 64A 64d#	.	.	.	.	.	.
.	64F# 64A 64d#	.	.	.	.	.	.
.	64F# 64A 64d#	.	.	.	.	.	.
.	64F# 64A 64d#	.	.	.	.	.	.
.	64F# 64A 64d#	.	.	.	.	.	.
.	64F# 64A 64d#	.	.	.	.	.	.
.	64F# 64A 64d#	.	.	.	.	.	.
.	64F#JJJJ 64A 64d#	.	.	.	.	.	.
[>4BB^>	64F#LLLL 64A	.	.	.	.	.	.
.	64F# 64A	.	.	.	.	.	.
.	64F# 64A	.	.	.	.	.	.
.	64F# 64A	.	.	.	.	.	.
.	64F# 64A	.	.	.	.	.	.
.	64F# 64A	.	.	.	.	.	.
.	64F# 64A	.	.	.	.	.	.
.	64F# 64A	.	.	.	.	.	.
.	64F# 64A	.	8d#	-na	.	.	.
.	64F# 64A	.	.	.	.	.	.
.	64F# 64A	.	.	.	.	.	.
.	64F# 64A	.	.	.	.	.	.
.	64F# 64A	.	.	.	.	.	.
.	64F# 64A	.	.	.	.	.	.
.	64F# 64A	.	.	.	.	.	.
.	64F#JJJJ 64A	.	.	.	.	.	.
!!LO:LB:original
=230	=230	=230	=230	=230	=230	=230	=230
*^	*	*	*	*	*	*	*
4BB]	4EE	64ELLLL 64G	.	8.f#	zla-	.	.	.
.	.	64E 64G	.	.	.	.	.	.
.	.	64E 64G	.	.	.	.	.	.
.	.	64E 64G	.	.	.	.	.	.
.	.	64E 64G	.	.	.	.	.	.
.	.	64E 64G	.	.	.	.	.	.
.	.	64E 64G	.	.	.	.	.	.
.	.	64E 64G	.	.	.	.	.	.
.	.	64E 64G	.	.	.	.	.	.
.	.	64E 64G	.	.	.	.	.	.
.	.	64E 64G	.	.	.	.	.	.
.	.	64E 64G	.	.	.	.	.	.
.	.	64E 64G	.	16e	-na	.	.	.
.	.	64E 64G	.	.	.	.	.	.
.	.	64E 64G	.	.	.	.	.	.
.	.	64EJJJJ 64G	.	.	.	.	.	.
*	*	*Xtremolo	*	*	*	*	*	*
4r	2ryy	8E 8G	.	4e	łza-	.	.	.
.	.	8r	.	.	.	.	.	.
4r	.	4r	.	8e	-mi.	.	.	.
.	.	.	.	8r	.	.	.	.
*	*	*clefG2	*	*	*	*	*	*
=231!|:	=231!|:	=231!|:	=231!|:	=231!|:	=231!|:	=231!|:	=231!|:	=231!|:
*>B	*	*	*	*	*	*	*	*
2.D	4EE	(8BL 8g	.	8.g	Tam	Tam	.	.
.	.	8d	.	.	.	.	.	.
.	.	.	.	16b	dzie-	są	.	.
.	4r	8g 8b	.	4.dd	-wi-	wid-	.	.
.	.	8d	.	.	.	.	.	.
.	4r	8B 8g	.	.	.	.	.	.
.	.	8dJ) 8b	.	8dd	-ca	-my	.	.
=232	=232	=232	=232	=232	=232	=232	=232	=232
(4G	4EE	(8eL 8cc	.	8.ee	smęt-	cza-	.	.
.	.	8d 8b	.	.	.	.	.	.
.	.	.	.	16dd	-na	-ro-	.	.
4D	4r	8c 8g	.	4b	rzew-	-wni-	.	.
.	.	8d	.	.	.	.	.	.
4B)	4r	8g	.	4g	-na	-ce	.	.
.	.	8dJ)	.	.	.	.	.	.
*v	*v	*	*	*	*	*	*	*
!!LO:LB:original
=233	=233	=233	=233	=233	=233	=233	=233
2DD 2D	(8AL 8f#	.	8.f#	no-	tam	.	.
.	8d	.	.	.	.	.	.
.	.	.	16a	-ta-	są,	.	.
.	8A 8f#	.	4.cc	-piej	kaz-	.	.
.	8d 8a	.	.	.	.	.	.
8A/L	8f# 8dd	.	.	.	.	.	.
8D/J	8aJ) 8cc	.	8cc	ża-	-ki	.	.
=234	=234	=234	=234	=234	=234	=234	=234
*	*^	*	*	*	*	*	*
8GGL	8.bL	8BL 8g	.	8.b/	-łoś	wie-	.	.
8AAJ	.	8cJ 8f#	.	.	.	.	.	.
.	16aJk	.	.	16a	nie	-czor-	.	.
4BB	4g	8eL	.	4g	spiew-	-ni-	.	.
.	.	8B	.	.	.	.	.	.
4BB 4B	4f#	8d#X	.	4f#	-na,	-ce	.	.
.	.	8BJ	.	.	.	.	.	.
*	*v	*v	*	*	*	*	*	*
=235	=235	=235	=235	=235	=235	=235	=235
4E 4G	(8eL 8g	.	8.e	bo	buj-	.	.
.	8B)	.	.	.	.	.	.
.	.	.	16g	o	-na	.	.
4EE 4BB 4E	(8G 8e	.	4.b	sła-	zie-	.	.
.	8g	.	.	.	.	.	.
4G 4e	8b	.	.	.	.	.	.
.	8eJ)	.	8b	-wie	-mia	.	.
=236	=236	=236	=236	=236	=236	=236	=236
*^	*	*	*	*	*	*	*
4r	2.EE	(8cL 8a	.	8.cc	o	buj-	.	.
.	.	8e)	.	.	.	.	.	.
.	.	.	.	16b	ko-	-ne	.	.
(4E	.	(8B 8g	.	4g	-za-	ple-	.	.
.	.	8e	.	.	.	.	.	.
4G)	.	8B	.	4e	-czej	-mię	.	.
.	.	8gJ)	.	.	.	.	.	.
*v	*v	*	*	*	*	*	*	*
=237	=237	=237	=237	=237	=237	=237	=237
*	*^	*	*	*	*	*	*
8BBB 8BB	8.AL 8.f#	2ryy	.	8.d#X	u	i	.	.
8r	.	.	.	.	.	.	.	.
.	16eJk	.	.	16cc	nas	w za-	.	.
4F# 4A	4d#X	.	.	4.b	by-	-na-	.	.
[>4BB^>	4dd#X	4a 4b	.	.	.	.	.	.
.	.	.	.	8d#	-ło	-drzu	.	.
=238	=238	=238	=238	=238	=238	=238	=238	=238
*^	*	*	*	*	*	*	*	*
4BB]	4EE	8.ff#L	4g 4b	.	8.f#	wprzód	przy-	.	.
.	.	16eeJk	.	.	16e	i-	-szłość	.	.
4r	4ryy	4ee	2ryy	.	4e	-na-	drze-	.	.
4r	4ryy	4r	.	.	4e	-czej.	-mie.	.	.
!!LO:PB:original
=239:|!	=239:|!	=239:|!	=239:|!	=239:|!	=239:|!	=239:|!	=239:|!	=239:|!	=239:|!
*>C	*	*	*	*	*	*	*	*	*
4EE 4E	2ryy	12eL 12g 12ee	8ryy	p	2.r	.	.	.	.
.	.	12g 12gg	.	.	.	.	.	.	.
.	.	.	8r	.	.	.	.	.	.
.	.	12aJ 12aa	.	.	.	.	.	.	.
4r	.	2b 2bb	4r	.	.	.	.	.	.
*Xtuplet	*	*	*	*	*	*	*	*	*
12F#L	4BB	.	12BL 12d#X 12f#	.	.	.	.	.	.
12E	.	.	12B 12e 12g	.	.	.	.	.	.
12D#XJ	.	.	12BJ 12f# 12a	.	.	.	.	.	.
=240	=240	=240	=240	=240	=240	=240	=240	=240	=240
4E 4B	2ryy	12eL 12g 12ee	2ryy	.	2.r	.	.	.	.
.	.	12g 12gg	.	.	.	.	.	.	.
.	.	12aJ 12aa	.	.	.	.	.	.	.
4r	.	2b 2bb	.	.	.	.	.	.	.
12F#L	4BB	.	12BL 12d#X 12f#	.	.	.	.	.	.
12E	.	.	12B 12e 12g	.	.	.	.	.	.
12D#XJ	.	.	12BJ 12f# 12a	.	.	.	.	.	.
*v	*v	*	*	*	*	*	*	*	*
*	*v	*v	*	*	*	*	*	*
=241	=241	=241	=241	=241	=241	=241	=241
8.EEL 8.E	8.bL 8.gg 8.bb	pp	2.r	.	.	.	.
16BJk 16g	16bJk 16gg 16bb	.	.	.	.	.	.
4c 4a	4.cc 4.aa 4.ccc	.	.	.	.	.	.
8EL	.	.	.	.	.	.	.
8BJ 8g	8b 8gg 8bb	.	.	.	.	.	.
=242	=242	=242	=242	=242	=242	=242	=242
8BBB 8BB	8b 8gg 8bb	.	2.r	.	.	.	.
8r	8r	.	.	.	.	.	.
2B 2d#X	2a 2ff# 2aa	.	.	.	.	.	.
=243	=243	=243	=243	=243	=243	=243	=243
*	*^	*	*	*	*	*	*
4BBB 4BB	12d#XL 12dd#X	2ryy	.	2.r	.	.	.	.
.	12e 12ee	.	.	.	.	.	.	.
.	12f#J 12ff#	.	.	.	.	.	.	.
4r	2a 2aa	.	.	.	.	.	.	.
*tuplet	*	*	*	*	*	*	*	*
!LO:TUP:a	!	!	!	!	!	!	!	!
12CL 12F# 12A	.	12eL	.	.	.	.	.	.
12C 12F# 12A	.	12f#	.	.	.	.	.	.
12CJ 12F# 12A	.	12eJ	.	.	.	.	.	.
=244	=244	=244	=244	=244	=244	=244	=244	=244
4BB 4F# 4B	12d#XL 12dd#X	2ryy	.	2.r	.	.	.	.
.	12e 12ee	.	.	.	.	.	.	.
.	12f#J 12ff#	.	.	.	.	.	.	.
4r	2a 2aa	.	.	.	.	.	.	.
!LO:TUP:a	!	!	!	!	!	!	!	!
12CL 12F# 12A	.	12eL	.	.	.	.	.	.
12C 12F# 12A	.	12f#	.	.	.	.	.	.
12CJ 12F# 12A	.	12eJ	.	.	.	.	.	.
*	*v	*v	*	*	*	*	*	*
=245	=245	=245	=245	=245	=245	=245	=245
8.BBL 8.F# 8.B	8.aL 8.ff# 8.aa	.	2.r	.	.	.	.
16BJk 16d#X 16f#	16aJk 16ff# 16aa	.	.	.	.	.	.
4B 4d# 4g	4.b 4.gg 4.bb	.	.	.	.	.	.
8BBL	.	.	.	.	.	.	.
8BJ 8f#	8a 8ff# 8aa	.	.	.	.	.	.
!!LO:LB:original
=246	=246	=246	=246	=246	=246	=246	=246
8EE	8a 8ff# 8aa	.	2.r	.	.	.	.
8r	8r	.	.	.	.	.	.
4E 4B	4g 4ee 4gg	sf	.	.	.	.	.
!LO:TUP:a	!LO:TUP:b	!	!	!	!	!	!
12AL 12B	12d#XL 12f# 12dd#X	.	.	.	.	.	.
12G 12B	12e 12g 12ee	.	.	.	.	.	.
12D#XJ 12B	12f#J 12a 12ff#	.	.	.	.	.	.
=247	=247	=247	=247	=247	=247	=247	=247
*^	*^	*	*	*	*	*	*
!	!	!LO:TUP:a	!	!	!	!	!	!	!
4E 4B	4ryy	12eL 12g 12ee	4ryy	.	2.r	.	.	.	.
.	.	12gg	.	.	.	.	.	.	.
.	.	12aaJ	.	.	.	.	.	.	.
4ryy	2BB	2bb\	4r	.	.	.	.	.	.
12F#L	.	.	12B/L 12d#X/	.	.	.	.	.	.
12G	.	.	12B/ 12e/	.	.	.	.	.	.
12AJ	.	.	12B/J 12f#/	.	.	.	.	.	.
*	*	*v	*v	*	*	*	*	*	*
=248	=248	=248	=248	=248	=248	=248	=248	=248
!LO:TUP:a	!	!	!	!	!	!	!	!
12EL 12G	2ryy	12BL 12e	.	2.r	.	.	.	.
12G	.	12g	.	.	.	.	.	.
12AJ	.	12aJ	.	.	.	.	.	.
4B	.	2b/	.	.	.	.	.	.
12D#XL 12F#	4BB	.	.	.	.	.	.	.
12E 12G	.	.	.	.	.	.	.	.
12F#J 12A	.	.	.	.	.	.	.	.
*v	*v	*	*	*	*	*	*	*
=249	=249	=249	=249	=249	=249	=249	=249
8E 8G	4.ee 4.eee	sfz	2.r	.	.	.	.
8r	.	.	.	.	.	.	.
8E 8G 8B	.	.	.	.	.	.	.
8r	8bL 8bb	.	.	.	.	.	.
8G 8B 8e	8a 8aa	.	.	.	.	.	.
8r	8gJ 8gg	.	.	.	.	.	.
=250	=250	=250	=250	=250	=250	=250	=250
8A 8c 8e	8.gL 8.gg	.	2.r	.	.	.	.
8r	.	.	.	.	.	.	.
.	16f#Jk 16ff#	.	.	.	.	.	.
8AA 8C 8F#	((4.f# 4.ff#	.	.	.	.	.	.
8r	.	.	.	.	.	.	.
8AA#X 8C#X 8F#	.	.	.	.	.	.	.
8r	8e)) 8ee	.	.	.	.	.	.
=251	=251	=251	=251	=251	=251	=251	=251
*	*^	*	*	*	*	*	*
8BB 8D#X 8F#	12d#X/L 12dd#X/	4ryy	.	2.r	.	.	.	.
.	12f#/ 12ff#/	.	.	.	.	.	.	.
8r	.	.	.	.	.	.	.	.
.	12g/J 12gg/	.	.	.	.	.	.	.
4r	2a 2aa	4r	.	.	.	.	.	.
4C 4c	.	4f# 4a 4ee	.	.	.	.	.	.
=252	=252	=252	=252	=252	=252	=252	=252	=252
*^	*	*	*	*	*	*	*	*
!LO:TUP:a	!	!	!	!	!	!	!	!	!
12BBL 12B	4ryy	12f#L 12a 12dd#X	4ryy	.	2.r	.	.	.	.
12F#	.	12f#	.	.	.	.	.	.	.
12GJ	.	12gJ	.	.	.	.	.	.	.
2A	4r	2a	4r	.	.	.	.	.	.
.	4C 4F#	.	4e	.	.	.	.	.	.
!!LO:LB:original
=253	=253	=253	=253	=253	=253	=253	=253	=253	=253
4BB 4F#	4.ryy	4.b	4.d	.	2.r	.	.	.	.
8BBB 8BB	.	.	.	.	.	.	.	.	.
8cL	8r	8ryy	8a	.	.	.	.	.	.
8B	4BB	8cc#XL	8gL	.	.	.	.	.	.
8AJ	.	8dd#XJ	8f#J	.	.	.	.	.	.
*v	*v	*	*	*	*	*	*	*	*
=254	=254	=254	=254	=254	=254	=254	=254	=254
8EL 8G	4ee	8eL	.	2r	.	.	.	.
8Fn	.	8fn	sfz	.	.	.	.	.
8D	4ryy	8d	.	.	.	.	.	.
8BBJ	.	8BJ	.	.	.	.	.	.
4GGG; 4GG	4b; 4dd 4gg	4f 4g	f	4r;	.	.	.	.
*	*v	*v	*	*	*	*	*	*
=255||	=255||	=255||	=255||	=255||	=255||	=255||	=255||
*k[]	*k[]	*	*k[]	*	*	*	*
!	!	!	!LO:TX:B:a:t=Allegro moderato.	!	!	!	!
(8qCC/	.	.	.	.	.	.	.
2.C)	4r	.	8.e	Gdyś	.	.	.
.	.	.	16g	na-	.	.	.
.	4G 4c 4e	.	4.cc	-resz-	.	.	.
.	4G 4c 4e	.	.	.	.	.	.
.	.	.	8dd	-cie	.	.	.
=256	=256	=256	=256	=256	=256	=256	=256
(8qDD/	.	.	.	.	.	.	.
2.D)	8.r	.	8.cc	żad-	.	.	.
.	16G 16B 16f	.	16b	-nej	.	.	.
.	4G 4B 4f	.	4b	ser-	.	.	.
.	4G 4B 4f	.	4d	-ca	.	.	.
=257	=257	=257	=257	=257	=257	=257	=257
4GG	4r	.	8.d	nie	.	.	.
.	.	.	16cc	po-	.	.	.
4r	4G 4d 4f	.	4.b	-ślu-	.	.	.
4r	4G 4B 4f	.	.	.	.	.	.
.	.	.	8d	-bił	.	.	.
=258	=258	=258	=258	=258	=258	=258	=258
*^	*	*	*	*	*	*	*
.	(8qCC/	.	.	.	.	.	.	.
*	*	*^	*	*	*	*	*	*
8.r	2.C)	8.r	4ryy	.	8.a	u	.	.	.
16E	.	16c 16g	.	.	16g	ko-	.	.	.
(4A	.	(4f	2c	.	4f	-bier-	.	.	.
4G)	.	4e)	.	.	4e	-ca	.	.	.
*v	*v	*	*	*	*	*	*	*	*
*	*v	*v	*	*	*	*	*	*
!!LO:LB:original
=259	=259	=259	=259	=259	=259	=259	=259
8.CCL 8.C	8.cL 8.e	.	8.e	i	.	.	.
16GJk	16dJk 16g	.	16g	u-	.	.	.
4C 4G	(4.e 4.cc	<	4.cc	-czu-	.	.	.
4r	.	.	.	.	.	.	.
.	8dd)	[[	8dd	-jesz	.	.	.
=260	=260	=260	=260	=260	=260	=260	=260
*	*^	*	*	*	*	*	*
8DD 8D	8.ccL	4f	.	8.cc	się	.	.	.
8r	.	.	.	.	.	.	.	.
.	16bJk	.	.	16b	sta-	.	.	.
!	!	!	!	!	!	!	!	!LO:DY:a
4D 4G 4B	4.ff	4.f 4.b	sfz	4.ff	-tecz-	.	.	sf
4r	.	.	.	.	.	.	.	.
.	8a	8ryy	.	8a	-nie	.	.	.
=261	=261	=261	=261	=261	=261	=261	=261	=261
!	!	!	!	!	!	!	!	!LO:DY:a
4GG 4G	8.aL	4B 4f	p	8a	jedź	.	.	p
.	.	.	.	8g	do	.	.	.
.	16gJk	.	.	.	.	.	.	.
2GGG 2GG	4.d 4.f 4.b	2ryy	.	4.b	Li-	.	.	.
.	8c 8f 8a	.	.	8a	-twy	.	.	.
*	*v	*v	*	*	*	*	*	*
=262	=262	=262	=262	=262	=262	=262	=262
8GG 8G	8.BL 8.f 8.g	.	8.g	już	.	.	.
8r	.	.	.	.	.	.	.
!	!	!	!LO:TX:a:t=rall.	!	!	!	!
.	16gJk	.	16B	ko-	.	.	.
(4BB	((4d 4f 4dd	.	4d	-niecz-	.	.	.
4C)	4c)) 4e 4cc	.	4c	-nie.	.	.	.
=263||	=263||	=263||	=263||	=263||	=263||	=263||	=263||
*^	*	*	*	*	*	*	*
8BB	4ryy	8G 8d 8g	.	8.g	Tam	.	.	.
8r	.	8r	.	.	.	.	.	.
.	.	.	.	16f#X	ko-	.	.	.
2G	4r	((4.f 4.dd	.	4.g	-leb-	.	.	.
.	4BB	.	.	.	.	.	.	.
.	.	8d)) 8f	.	8d	-ka	.	.	.
=264	=264	=264	=264	=264	=264	=264	=264	=264
*	*	*^	*	*	*	*	*	*
8.GL	4C	((4Bt 4f	2ryy	.	8d	A-	.	.	.
.	.	.	.	.	8fn	-da-	.	.	.
16GJk	.	.	.	.	.	.	.	.	.
8G	4r	8c)) 8e	.	.	4e	-mo-	.	.	.
8r	.	8r	.	.	.	.	.	.	.
4E	4BB-X	4e	8eL	.	4e	-wa	.	.	.
.	.	.	8dJ	.	.	.	.	.	.
*	*	*v	*v	*	*	*	*	*	*
!!LO:PB:original
=265	=265	=265	=265	=265	=265	=265	=265	=265
8AA 8E	4ryy	8c#X 8a	.	8.a	tkli-	.	.	.
8r	.	8r	.	.	.	.	.	.
.	.	.	.	16g#X	-we	.	.	.
2A	4r	((4.g 4.ee	<	4a	ser-	.	.	.
.	4C#X	.	.	4e	-ce	.	.	.
.	.	8e)) 8g	[[	.	.	.	.	.
=266	=266	=266	=266	=266	=266	=266	=266	=266
*	*	*^	*	*	*	*	*	*
8.AL	[4D	((4c#Xt 4g	2ryy	.	8e	mą-	.	.	.
!	!	!	!	!	!	!	!	!	!LO:DY:a
.	.	.	.	.	8gn	-dra	.	.	<
16AJk	.	.	.	.	.	.	.	.	.
8A	8DL]	8d)) 8f	.	.	4f	gło-	.	.	.
8ryy	8Cn	8r	.	.	.	.	.	.	.
4ryy	8BB	4f	8dL	.	4f	-we	.	.	[[
.	8AAJ	.	8cnJ	.	.	.	.	.	.
*v	*v	*	*	*	*	*	*	*	*
*	*v	*v	*	*	*	*	*	*
=267	=267	=267	=267	=267	=267	=267	=267
!	!	!	!	!	!	!	!LO:DY:a
[4GG	8.BL 8.f 8.b	f	8.b	a	.	.	sf
.	16dJk 16f 16a#X	.	16a#X	dzie-	.	.	.
8.GGL]	4d 4f 4b	.	4b	-wi-	.	.	.
16DK	.	.	.	.	.	.	.
8.G	4B 4d 4g	.	4g	-ca	.	.	.
16FJk	.	.	.	.	.	.	.
=268	=268	=268	=268	=268	=268	=268	=268
*^	*^	*	*	*	*	*	*
8.EL	4ryy	8.cL 8.cc	4ryy	.	8.cc	mi-	.	.	.
16FJk 16c	.	16dJk 16an	.	.	16an	-ła	.	.	.
(4c	4.G	(4.g	2d	>	4.g	stroj-	.	.	.
4B)	.	.	.	.	.	.	.	.	.
.	8G#X	8f)	.	.	8f	-na	.	.	.
*v	*v	*	*	*	*	*	*	*	*
*	*v	*v	*	*	*	*	*	*
=269	=269	=269	=269	=269	=269	=269	=269
4A	(8dL 8f	] p	8.f	jak	.	.	.
.	8cJ 8e	.	.	.	.	.	.
.	.	.	16e	łza	.	.	.
4r	4e) 4cc	.	4cc	czy-	.	.	.
4AA 4E	4e 4cc	.	4cc	-sta	.	.	.
=270	=270	=270	=270	=270	=270	=270	=270
*	*^	*	*	*	*	*	*
([4AA [4E 4G#X	8.bL	(4d	.	8.b	i	.	.	.
.	16ccJk	.	.	16cc	spo-	.	.	.
4AA]) 4E] 4A	4a	4c)	.	4a	-koj-	.	.	.
4AA 4E	4e^	4ryy	.	4a	-na.	.	.	.
*	*v	*v	*	*	*	*	*	*
!!LO:LB:original
=271||	=271||	=271||	=271||	=271||	=271||	=271||	=271||
*^	*	*	*	*	*	*	*
4r	2.AAA 2.AA	4.ee 4.eee	mfp	2.r	.	.	.	.
4E 4A 4c	.	.	.	.	.	.	.	.
.	.	8cccL	.	.	.	.	.	.
.	.	(16qqddd/LL	.	.	.	.	.	.
.	.	16qqccc/JJ	.	.	.	.	.	.
4E 4A 4c	.	8ee) 8bb	.	.	.	.	.	.
.	.	8aaJ	.	.	.	.	.	.
*v	*v	*	*	*	*	*	*	*
=272	=272	=272	=272	=272	=272	=272	=272
4E 4G#X 4d	(8eeL 8bb	.	2.r	.	.	.	.
.	8cccJ)	.	.	.	.	.	.
4E 4A 4c	2a 2aa	.	.	.	.	.	.
4AA 4E	.	.	.	.	.	.	.
=273	=273	=273	=273	=273	=273	=273	=273
*^	*^	*	*	*	*	*	*
4r	2.AAA 2.AA	4.ee	2e	.	2.r	.	.	.	.
4E 4A 4c	.	.	.	.	.	.	.	.	.
.	.	8ccL	.	.	.	.	.	.	.
.	.	(<16qqdd/LL	.	.	.	.	.	.	.
.	.	16qqcc/JJ	.	.	.	.	.	.	.
4E 4A 4c	.	8b)	4e	.	.	.	.	.	.
.	.	8aJ	.	.	.	.	.	.	.
=274	=274	=274	=274	=274	=274	=274	=274	=274	=274
4G#X	4AA 4E	(8.bL	4d	.	2r	.	.	.	.
.	.	16ccJk)	.	.	.	.	.	.	.
2A;	2AA 2E	2a;	2c	.	.	.	.	.	.
.	.	.	.	.	4r;	.	.	.	.
*v	*v	*	*	*	*	*	*	*	*
*	*v	*v	*	*	*	*	*	*
=275||	=275||	=275||	=275||	=275||	=275||	=275||	=275||
(8qCC/	.	.	.	.	.	.	.
2.C)	4r	.	8.e	Nad	.	.	.
.	.	.	16g	Świ-	.	.	.
.	4G 4c 4e	.	4.cc	-te-	.	.	.
.	4G 4c 4e	.	.	.	.	.	.
.	.	.	8dd	-ziem	.	.	.
=276	=276	=276	=276	=276	=276	=276	=276
(8qDD/	.	.	.	.	.	.	.
2.D)	8.r	.	8.cc	nad	.	.	.
.	16G 16B 16f	.	16b	wi-	.	.	.
.	4G 4B 4f	.	4b	-li-	.	.	.
.	4G 4B 4f	.	4d	-ją	.	.	.
!!LO:LB:original
=277	=277	=277	=277	=277	=277	=277	=277
4GG	4r	.	8.d	stroj-	.	.	.
.	.	.	16cc	-ne	.	.	.
4r	4G 4d 4f	.	4.b	w cno-	.	.	.
4r	4G 4B 4f	.	.	.	.	.	.
.	.	.	8d	-tę	.	.	.
=278	=278	=278	=278	=278	=278	=278	=278
*^	*^	*	*	*	*	*	*
*	*	*	*^	*	*	*	*	*	*
8.r	4CC 4C	4r	4ryy	4ryy	.	8.a	i	.	.	.
16c	.	.	.	.	.	16g	li-	.	.	.
2c	2ryy	2cc	(4a	(4ff/	.	4f	-li-	.	.	.
.	.	.	4g)	4ee/)	.	4e	-ją	.	.	.
*v	*v	*	*	*	*	*	*	*	*	*
*	*v	*v	*v	*	*	*	*	*	*
=279	=279	=279	=279	=279	=279	=279	=279
8C	8.ccL 8.ee 8.gg	.	8.e	nę-	.	.	.
8r	.	.	.	.	.	.	.
!	!	!	!	!	!	!	!LO:DY:a
.	16ddJk 16gg	.	16g	-cą	.	.	<
4G 4c 4e	4.cc 4.ee 4.ccc	.	4.cc	wdzię-	.	.	.
4r	.	.	.	.	.	.	.
.	8dd 8ddd	.	8dd	-kiem	.	.	[[
=280	=280	=280	=280	=280	=280	=280	=280
8D	8.ccL 8.ccc	.	8.cc	i	.	.	.
8r	.	.	.	.	.	.	.
.	16bJk 16bb	.	16b	u-	.	.	.
*clefG2	*	*	*	*	*	*	*
!	!	!	!	!	!	!	!LO:DY:a
4d 4g 4b	4.ff 4.fff	sfz	4.ff	-śmie-	.	.	sfz
4r	.	.	.	.	.	.	.
.	8a 8aa	.	8a	-chem	.	.	.
*clefF4	*	*	*	*	*	*	*
=281	=281	=281	=281	=281	=281	=281	=281
!	!	!	!	!	!	!	!LO:DY:a
4G 4B 4f	8.aL 8.aa	p	8.a	i	.	.	p
.	16gJk 16gg	.	16g	dzie-	.	.	.
4.G 4.d 4.f	4.b 4.bb	.	4.b	-wi-	.	.	.
8G 8c 8f	8a 8aa	.	8a	-czych	.	.	.
=282	=282	=282	=282	=282	=282	=282	=282
8.GL 8.B 8.f	8g 8gg	.	8.g	ust	.	.	.
!	!LO:TX:b:t=rit.	!	!	!	!	!	!
.	8r	.	.	.	.	.	.
16GJk	.	.	16B	od-	.	.	.
!	!	!	!LO:TX:a:t=rall.	!	!	!	!
(<4BB [4G	(<4dd (>4ff (>4ddd	.	4d	-de-	.	.	.
4C) 4G]	4cc) 4ee) 4ccc)	.	4c	-chem.	.	.	.
!!LO:LB:original
=283||	=283||	=283||	=283||	=283||	=283||	=283||	=283||
!	!LO:TX:B:a:t=Vivo.	!	!	!	!	!	!
4CC 4C	4G 4e 4g	ff	2.r	.	.	.	.
4E 4c	4e 4cc	.	.	.	.	.	.
4G 4d	4g 4dd	.	.	.	.	.	.
=284	=284	=284	=284	=284	=284	=284	=284
*	*^	*	*	*	*	*	*
4CC 4C	4ee	4cc	.	2.r	.	.	.	.
2E 2G 2c 2e	4.gg	2g^	.	.	.	.	.	.
.	8ee	.	.	.	.	.	.	.
=285	=285	=285	=285	=285	=285	=285	=285	=285
4CC 4C	(8ggL	4g	.	2.r	.	.	.	.
.	8eeJ)	.	.	.	.	.	.	.
4F 4G 4B 4d	4ff	4g	.	.	.	.	.	.
4F 4G 4B 4d	4gg	4g	.	.	.	.	.	.
=286	=286	=286	=286	=286	=286	=286	=286	=286
4CC 4C	4ee	4g	.	2.r	.	.	.	.
4E 4G 4c 4e	4.gg	2g^	.	.	.	.	.	.
4E 4G 4c 4e	.	.	.	.	.	.	.	.
.	8ee	.	.	.	.	.	.	.
=287	=287	=287	=287	=287	=287	=287	=287	=287
4CC 4C	(8ggL	4g	.	2.r	.	.	.	.
.	8eeJ)	.	.	.	.	.	.	.
4F 4G 4B 4d	4ff	4g	.	.	.	.	.	.
4F 4G 4B 4d	4gg	4g	.	.	.	.	.	.
=288	=288	=288	=288	=288	=288	=288	=288	=288
4CC 4C	4ee	4g	.	2.r	.	.	.	.
2E 2G 2c 2e	4.gg	2g	.	.	.	.	.	.
.	8ee	.	.	.	.	.	.	.
=289	=289	=289	=289	=289	=289	=289	=289	=289
4CC 4C	4dd	4g	.	2.r	.	.	.	.
2F 2G 2B 2d	4.gg	2g^	.	.	.	.	.	.
.	8dd	.	.	.	.	.	.	.
*	*v	*v	*	*	*	*	*	*
=290	=290	=290	=290	=290	=290	=290	=290
8C 8G 8c	8.eL 8.g 8.ee	.	2.r;	.	.	.	.
8r	.	.	.	.	.	.	.
.	16fJk 16g 16dd	.	.	.	.	.	.
4CC 4C	4e 4g 4cc	.	.	.	.	.	.
4r;	4r;	.	.	.	.	.	.
==	==	==	==	==	==	==	==
*-	*-	*-	*-	*-	*-	*-	*-
!!!system-decoration: s1{(s2,s3)}
!!!RDF**kern: > = above
!!!RDF**kern: < = below
!!!RDF**dynam: > = dimin.
!!!ENC: Andrzej Gręziak
!!!END: 2022-08-29
!!!ENC: Leszek Kubiak
!!!END: 2023-09-26
!!!YEC: Copyright 2022 Narodowy Instytut Fryderyka Chopina (https://polishscores.org)
!!!YEM: License CC-BY-4.0 (https://creativecommons.org/licenses/by/4.0)
